privateAccountOfLiu/ShadowFight3-Easy-Switch/out_animation.csv
pelvis,stomach,chest,neck,head,hair,zero_joint_hand_l,clavicle_l,arm_l,forearm_l,forearm_twist_l,hand_l,weapon_l,f_big1_l,f_big2_l,f_big3_l,f_main1_l,f_main2_l,f_main3_l,f_pointer1_l,f_pointer2_l,f_pointer3_l,scapular_l,chest_l,zero_joint_hand_r,clavicle_r,arm_r,forearm_r,forearm_twist_r,hand_r,weapon_r,f_big1_r,f_big2_r,f_big3_r,f_main1_r,f_main2_r,f_main3_r,f_pointer1_r,f_pointer2_r,f_pointer3_r,scapular_r,chest_r,zero_joint_pelvis_l,thigh_l,calf_l,foot_l,toe_l,back_l,zero_joint_pelvis_r,thigh_r,calf_r,foot_r,toe_r,back_r,biceps_twist_l,biceps_twist_r,thigh_twist_l,thigh_twist_r
"[-1.015625, 102.375, -7.07421875]","[-1.7628189509804764, 113.29040369876091, -5.665623250943667]","[-2.4940909281277053, 130.99864391689533, -4.692887759858986]","[-0.2989373255963481, 159.95484576867946, -7.301832065199954]","[-0.8493644463325825, 173.57357969640034, -5.886645765406836]","[2.5185620875200803, 188.56609075575702, -7.196573821959518]","[-2.4940978122006174, 130.99864406412607, -4.692891917969707]","[-2.9155169474853757, 155.8193770469161, -7.3836724999343915]","[-18.785546983320895, 152.66613386267326, -16.288387001818396]","[-19.40075105149403, 124.03072931907965, -20.52142134153373]","[-20.999830625774017, 112.20099651292146, -20.4558052023523]","[-22.70709649095305, 99.66057765477473, -20.39361557169458]","[-17.213293534069173, 94.58871095266656, -25.46618744988441]","[-20.036005781034568, 94.22500066350038, -20.23632021552507]","[-18.383408088936662, 90.72115701156186, -19.68916361315595]","[-16.496128886242165, 88.3866417702963, -22.725046386881605]","[-19.42664644204118, 94.44406329157721, -30.027887247379898]","[-14.742742934916803, 93.95233059190932, -28.42936756956078]","[-15.201961393983845, 94.24759980592081, -23.69467382838789]","[-19.635092236014625, 90.1448348512165, -26.919046027033218]","[-15.566068612703212, 88.97676104502271, -28.30126183181009]","[-14.89268563873277, 89.72783676105576, -25.02084540910711]","[-16.11828154614386, 160.14650672387776, -15.2835091868188]","[-19.38982558786637, 141.90221541818428, 2.745348657642454]","[-2.494090069359637, 130.99849082145306, -4.692876977750655]","[0.4020246141760522, 155.7996756518398, -4.806022206810078]","[16.68255723788292, 151.72307368511906, 2.902434272991493]","[23.711385737304898, 123.7519233242431, 0.3541476479510215]","[22.302622779877627, 112.22742553792996, 3.1299842855925273]","[20.82058948015142, 100.00894343713743, 6.078372320612543]","[-17.214154834979468, 94.58805354961751, -25.458490874860807]","[16.376009151976557, 95.59412190833783, 5.702363794871293]","[14.752672474281047, 92.3585932913438, 3.6987816492247165]","[17.27880720255685, 89.45257585156733, 1.021612203479418]","[23.537996786908035, 89.01892779236522, 6.292029686121145]","[21.712783083258806, 89.71191772232638, 1.9832275241846045]","[20.081230838373642, 93.84754938931783, 2.0096802535215623]","[18.503355167256093, 88.25097448887612, 7.768699033293342]","[18.0476658231359, 87.05750669519584, 3.372344584150409]","[16.87947726942821, 90.27507393361434, 2.7533425277956685]","[14.82059293120323, 159.30736571109654, 1.111846583345005]","[-5.481070953425634, 141.82084088377798, 13.572817439102085]","[-1.0156150779181985, 102.37498577982767, -7.074220454160944]","[-9.71060545020829, 102.48337095465313, -10.10767306922952]","[-7.872861350552462, 53.46181771635103, -9.308342319961813]","[-3.184865484022512, 12.643321422195008, -11.079974975924397]","[-14.135170556528337, 2.046003134722074, 2.8825956397237515]","[-5.192394609307287, 98.1971102921688, -19.427989766646135]","[-1.0156203896680072, 102.37468109747458, -7.074194837539941]","[6.425645651136607, 102.49528781268052, -1.6490374609118499]","[6.466623577970031, 53.4440538612069, -2.699603507071548]","[6.8597503563557565, 12.345826869623295, -4.130273183710474]","[2.7480177956456666, 2.2017835324188173, 13.40134837238153]","[11.525024659348876, 98.2100104956834, -10.666337318491552]","[-19.08059077616382, 138.90483528042046, -18.32326925531177]","[20.060611814436054, 138.28083806919264, 1.6792472030443473]","[-8.546070132483841, 84.29127804084507, -10.219261578658692]","[6.601649086883839, 84.29399732968487, -2.650480803368124]"
"[-1.015625, 102.375, -7.07421875]","[-1.7630952489484875, 113.2902698351632, -5.664732803426267]","[-2.494015298013404, 130.99851807678493, -4.691878635399162]","[-0.2982646335485146, 159.95469404974767, -7.3006077270696]","[-0.8484160069063011, 173.57342937884457, -5.885327698301971]","[2.5198217058033827, 188.5658814745193, -7.195130502270406]","[-2.4940221820710957, 130.99851822418879, -4.691882793528948]","[-2.914924614289525, 155.81928054583244, -7.3824736107753655]","[-18.78500240583225, 152.66649146466003, -16.28726381278325]","[-19.40077713993294, 124.03113075900389, -20.52051172498171]","[-21.001027207576193, 112.20155342369773, -20.455403646883543]","[-22.70954802735681, 99.66130278070605, -20.393759293785298]","[-17.228544188611647, 94.59888750125408, -25.481199778529593]","[-20.038996882654846, 94.22545395337424, -20.236696415666856]","[-18.42185360973871, 90.70124145515831, -19.715012872746392]","[-16.54578527833738, 88.39228278345078, -22.77727443647477]","[-19.429611055295148, 94.44487719704632, -30.02825372448624]","[-14.751503514129308, 93.96044994120777, -28.410644859141208]","[-15.149281788459854, 94.24385364105626, -23.669669736661085]","[-19.63848505051933, 90.14553577134936, -26.919597499658003]","[-15.55632410174278, 89.0022961383668, -28.283722741785173]","[-14.88705881344127, 89.7383519220777, -24.999061857564755]","[-16.117577326917313, 160.14674165997698, -15.282315737272963]","[-19.389548264225112, 141.9023786880593, 2.7463921136535054]","[-2.494014442415322, 130.99836498124213, -4.691867854466414]","[0.40260897932830364, 155.79949130797672, -4.804813735375775]","[16.6830338684236, 151.7224814344784, 2.903654553310699]","[23.7112901767141, 123.75120463366682, 0.3551776144212955]","[22.30228283050022, 112.22671436827844, 3.1309214349335903]","[20.820001813467506, 100.00823864226841, 6.07921138498628]","[-17.221980361368608, 94.5975255401595, -25.490741147275205]","[16.375332088814275, 95.59351111884321, 5.703155845411773]","[14.721062746905535, 92.34453929856048, 3.7471947231474223]","[17.058390717266263, 89.34660348779296, 1.0007768575442402]","[23.537183205132212, 89.0181656510037, 6.292792152972228]","[21.725106208775692, 89.36836581930254, 1.9372033378591897]","[19.89936950248408, 93.39044108318367, 1.431527739598046]","[18.50252151114217, 88.25030419120883, 7.769440818423941]","[18.097489828722768, 86.75941417569716, 3.459783889211054]","[16.889077114736857, 89.81976769549638, 2.330827719654658]","[14.821231833941255, 159.30684025659295, 1.1131243524343608]","[-5.480827071375659, 141.82063571452787, 13.573901078104571]","[-1.015615077553931, 102.37498578012482, -7.074220454519479]","[-9.710354718165501, 102.48374627838115, -10.108403053695064]","[-7.871960729539834, 53.46215056299871, -9.313182310035026]","[-3.18102608549144, 12.644006314224207, -11.085147182838833]","[-14.1306642541531, 2.0456929241123216, 2.877191142967437]","[-5.191237006170821, 98.19812319982475, -19.42872358353504]","[-1.0156203870046991, 102.37468109546315, -7.074194864894229]","[6.425162977113224, 102.49492704689665, -1.6483674929262682]","[6.465652769767049, 53.443696421981244, -2.6991077619421584]","[6.858376789868222, 12.345471047000913, -4.129934473677695]","[2.746510109901547, 2.201407235811196, 13.401643779993789]","[11.525405446309927, 98.21051121675963, -10.66558837434791]","[-19.0803175738224, 138.90521376565147, -18.322247925215954]","[20.060813012712018, 138.28018500156864, 1.6803752109823435]","[-8.545537916240898, 84.29168053642096, -10.221473548705172]","[6.600985616096269, 84.29363832842819, -2.6498746671090476]"
"[-1.013671875, 102.375, -7.09375]","[-1.754120193934178, 113.2919112237464, -5.693298756346772]","[-2.516050844936651, 130.99871001852244, -4.717858958656181]","[-0.2756695038373973, 159.94971687452968, -7.345939805977371]","[-0.833562483296113, 173.56916751032998, -5.940608599616057]","[2.571531917067301, 188.5552907362162, -7.227337513906875]","[-2.516057723741744, 130.99871017262112, -4.717863125227387]","[-2.898135003352935, 155.81799529571094, -7.42780463050023]","[-18.713069932969255, 152.61064511532288, -16.41087040816384]","[-19.37091326246212, 123.95233269171624, -20.47926329581003]","[-21.006680907400344, 112.12753695673445, -20.43017983758748]","[-22.75312921773507, 99.59243742889494, -20.386161895748472]","[-17.46659651808814, 94.54791138182442, -25.620771323466688]","[-20.08946714212363, 94.15343156897131, -20.221588992686854]","[-18.50657556134258, 90.61023041557735, -19.724035370702044]","[-16.752554860685876, 88.28038051793828, -22.842300794389956]","[-19.86357313560275, 94.17005864418887, -30.031929843877112]","[-15.131155722139852, 93.70813783075451, -28.573549591328387]","[-15.25649679822755, 94.05998177500005, -23.822140770974627]","[-19.95923124816376, 89.9360535778762, -26.82946841730251]","[-15.943245060132183, 88.76054875563534, -28.353251060984167]","[-15.104905078620158, 89.5336526544701, -25.116248152773082]","[-16.098628651522983, 160.1030590554796, -15.35432088845469]","[-19.40492457595216, 141.93241342884568, 2.691672471303459]","[-2.516050221777809, 130.99855693015917, -4.717848060468695]","[0.4162467206724707, 155.795416267996, -4.846116197145696]","[16.67852740281373, 151.72887150491133, 2.906055642161295]","[23.73213655480638, 123.77294585271572, 0.26101005239714725]","[22.299340764987654, 112.27532635424426, 3.1342962388934805]","[20.79191942847163, 100.08529994701163, 6.185796937270965]","[-17.44587307732271, 94.54006375607328, -25.616705841912008]","[16.313289837109256, 95.71136394847655, 5.742077769019425]","[14.597769891519349, 92.45882147279148, 3.8457189247012957]","[16.689799848020822, 89.34449119512435, 1.0318447538072877]","[23.42192660001135, 89.07218956600889, 6.255495046910862]","[21.699445840710467, 89.00037249294812, 1.8503480543070792]","[19.791349263223, 92.91073547682575, 0.9369256191753486]","[18.378573629926855, 88.32429504229798, 7.712603648248608]","[18.01483613392633, 86.54853040668638, 3.5085226933369107]","[16.834958184976944, 89.39734633755613, 1.8983354995670183]","[14.81463677227896, 159.31266337975305, 1.11505059793026]","[-5.509440843328022, 141.83899004313884, 13.53607016858433]","[-1.013661961653771, 102.37498577222195, -7.093751691470186]","[-9.707871192360644, 102.4867416249443, -10.12932020004966]","[-7.81848386982578, 53.46650121785919, -9.370926534394647]","[-3.1845708746314862, 12.639525466165892, -11.088636788747294]","[-14.131305764586859, 2.041553886438196, 2.8762372854516443]","[-5.190233966325689, 98.19078741651914, -19.445451067679]","[-1.013667475053541, 102.37468111209824, -7.093725854022714]","[6.4264217546291125, 102.49422397483282, -1.666945054216102]","[6.4572181380994165, 53.44377970107468, -2.754091975659781]","[6.845199030239491, 12.343749459890361, -4.133443747919724]","[2.7418711022387363, 2.1969092115993423, 13.398528393139205]","[11.525140377941218, 98.19934251371417, -10.679892649479054]","[-19.02852825326915, 138.83833145120272, -18.366630536120372]","[20.068523234169433, 138.29395621428637, 1.636363911724872]","[-8.522463641795751, 84.29608238254133, -10.254077311830342]","[6.601865312316006, 84.29363212730516, -2.6811034201242725]"
"[-1.0107421875, 102.375, -7.1484375]","[-1.7345199608464879, 113.29560423627868, -5.768210374574112]","[-2.567791072714145, 130.99898696507222, -4.78910622416173]","[-0.22099647174987558, 159.93632069975422, -7.474285374395384]","[-0.7977635257638321, 173.55747350216717, -6.0932813882600545]","[2.6986555455348995, 188.52647732586718, -7.333526009138322]","[-2.5677979442348273, 130.99898713468195, -4.789110402134633]","[-2.8578949089764403, 155.81371926582221, -7.5516442103668115]","[-18.548983882173157, 152.4689929768797, -16.70026489152186]","[-19.305950278969483, 123.73952742934625, -20.338023943604135]","[-21.025105503477867, 111.92658407998108, -20.28498325791654]","[-22.860607167654074, 99.40422324576389, -20.238295641603248]","[-18.06907089101442, 94.36938149816397, -25.81114402070433]","[-20.20009303703136, 93.96407137062097, -20.061160738514793]","[-18.64081025109333, 90.40831188687733, -19.57888365559769]","[-17.202046103247742, 87.97765159422812, -22.780479614653295]","[-21.000614387175677, 93.45734853520791, -29.82827339857861]","[-16.14460458134484, 93.03743929275915, -28.838898157360354]","[-15.654309863355572, 93.58927415464561, -24.130344271153767]","[-20.76557054939805, 89.40041011638313, -26.411006416772164]","[-16.9800950036333, 88.09847249774863, -28.36216031722722]","[-15.707847053747924, 88.98803894399184, -25.301319303368864]","[-16.06694697608882, 159.98956940691562, -15.522069735752613]","[-19.429829709369283, 142.007731052902, 2.5702611945286904]","[-2.567791007549863, 130.99883389868972, -4.789095004353901]","[0.45223777564482726, 155.7848720034808, -4.9645723834512605]","[16.67049532187759, 151.74246697276556, 2.891750611359199]","[23.772718998040254, 123.81946494749492, 0.037311249975780836]","[22.247091508357865, 112.40744335775618, 3.190429614752681]","[20.6414282890099, 100.30806550557938, 6.538208092359003]","[-18.0609756212735, 94.38039016439967, -25.786135656396386]","[16.067580380745163, 96.05473699305831, 5.925478369871794]","[14.247906920561341, 92.81593839107082, 4.10416285070924]","[16.018882330233218, 89.53799756999317, 1.255962017956921]","[23.017704486709512, 89.24006005958725, 6.287284413279188]","[21.49951983672118, 88.6315057789132, 1.8485691269364093]","[19.679922122343342, 92.51593756646334, 0.6796606182364693]","[17.946618638963646, 88.56473690372309, 7.68225675547619]","[17.59600939791027, 86.51533763226446, 3.6034122410856275]","[16.54060393838986, 89.11485933702018, 1.546916548168645]","[14.803685551741037, 159.3242648379506, 1.0958581272770918]","[-5.552188878821851, 141.88807171030828, 13.437226002121573]","[-1.0107322958661222, 102.3749857539971, -7.148439164978481]","[-9.704710541695173, 102.49415007229108, -10.184362634497175]","[-7.69246410119942, 53.477511652112575, -9.514334805797882]","[-3.199281399198707, 12.629256970644633, -11.094532885656262]","[-14.140660850517945, 2.031099176381863, 2.874396254906827]","[-5.193547653357138, 98.17430040221579, -19.492427391268226]","[-1.0107382746396596, 102.37468115101723, -7.148412763441194]","[6.429463573308027, 102.49291610564823, -1.7217577119274585]","[6.444953570463075, 53.444194103995684, -2.8843196961589816]","[6.822612746903142, 12.340019964658204, -4.137263910635911]","[2.744170001234556, 2.1849359441204985, 13.395741752114523]","[11.521721413649644, 98.17357191799648, -10.726664074339276]","[-18.911690792365782, 138.6699129106264, -18.44811165753007]","[20.08390785860115, 138.3233779404335, 1.5214214179952452]","[-8.469767305746508, 84.30700057924426, -10.33716184994455]","[6.606570430298856, 84.29380569898805, -2.761880205081786]"
"[-1.009765625, 102.4375, -7.2421875]","[-1.7134847534731175, 113.36218426043676, -5.884052273021099]","[-2.6350355279463393, 131.06084390417584, -4.898690243522243]","[-0.17719499012355344, 159.9807013887517, -7.671374673804683]","[-0.7799904540390071, 173.60300332075863, -6.313006736501912]","[2.8142315831422033, 188.55243465263558, -7.508957954838696]","[-2.6350424040894302, 131.06084408884965, -4.898694413243252]","[-2.8317634468904136, 155.8528865449079, -7.731714072727243]","[-18.395307671724012, 152.33386494471262, -17.03156922659416]","[-19.27342426576284, 123.5372037916564, -20.059720278897963]","[-21.099857057827876, 111.74108144415142, -19.919796838586574]","[-23.049871611420684, 99.23670290327536, -19.78280340824554]","[-18.972808982561684, 94.17528547910169, -25.747626632271725]","[-20.371067118499862, 93.80513743019331, -19.618280953587824]","[-18.812922272239582, 90.24710444723678, -19.149276360321753]","[-17.845904590119254, 87.65949906099371, -22.404663780898392]","[-22.643985288669786, 92.60042985086774, -29.08805470053509]","[-17.693357641529655, 92.21103213071598, -28.81296637424333]","[-16.369099295402787, 93.03721770684618, -24.309728922020728]","[-21.875920558936443, 88.7991562830672, -25.461471680881605]","[-18.509187038026845, 87.29707751000338, -27.959618058114362]","[-16.673834267862354, 88.335686590233, -25.2519507211062]","[-16.081107757171367, 159.8856760560139, -15.708928378173493]","[-19.44391962243182, 142.1576880855812, 2.4499522767274984]","[-2.635036054330878, 131.06069087204256, -4.898678577550873]","[0.48131975220175205, 155.83396811209786, -5.151461736186024]","[16.651124712606876, 151.82017703006701, 2.818583177959794]","[23.814801117575648, 123.93730934645954, -0.26538786969219075]","[22.11451138179494, 112.67876033982375, 3.320420387833491]","[20.32387986073395, 100.74190879197326, 7.126459441685704]","[-18.94347224294169, 94.19431045377769, -25.755720531942103]","[15.612372546166329, 96.68093627259472, 6.291877595603602]","[13.670290441742894, 93.47138729609736, 4.546787400433803]","[15.090595463440728, 89.99677340967123, 1.7355079957148458]","[22.306955045429213, 89.60985142929886, 6.533003285574039]","[21.044327700813362, 88.41294019296508, 2.1340726389029143]","[19.428363414586492, 92.31662295067656, 0.749878331793989]","[17.190946564953173, 89.07223073542143, 7.8192480568921825]","[16.8127484126558, 86.75545140872521, 3.8886712534354353]","[15.934540028450478, 89.05547389394474, 1.4284257292091338]","[14.781473651164504, 159.3992469729879, 1.0141329627989277]","[-5.552948587199642, 142.01467340844175, 13.299589506140881]","[-1.009755759338352, 102.43748573393928, -7.2421891472416275]","[-9.707286660556546, 102.56486348535093, -10.267585041546639]","[-7.5235857801762345, 53.554269433015364, -9.700102535223003]","[-3.198328733820241, 12.681643953394207, -11.109451835025054]","[-14.124580461272789, 2.080313048716299, 2.868907171016298]","[-5.214938373178507, 98.21788293883891, -19.572117715816148]","[-1.0097622159466142, 102.43718119761537, -7.242162097253251]","[6.437362865716162, 102.55433399779514, -1.8249883571652017]","[6.433534288197326, 53.50689678542696, -3.040639850633147]","[6.798451742778011, 12.398199433109276, -4.139488060821522]","[2.75306845157413, 2.233067273751729, 13.395353725575058]","[11.511182283576677, 98.20752070420139, -10.82708441449012]","[-18.815987347971856, 138.5024820648145, -18.486564597901218]","[20.0941138889412, 138.4203774078097, 1.3379301813260285]","[-8.404113938046185, 84.38277648718328, -10.45276687078373]","[6.6152248645458664, 84.35623449355384, -2.882523598143715]"
"[-1.0126953125, 102.4375, -7.36328125]","[-1.6975636766895572, 113.36526637974201, -6.020390566952548]","[-2.689903317457029, 131.05982832115563, -5.0301951703311305]","[-0.15187742086594413, 159.96096624665526, -7.923215646773859]","[-0.7756272065701209, 173.58368002800606, -6.578507122680821]","[2.8959439912931675, 188.51474196096794, -7.7689620814182]","[-2.689910222432181, 131.0598285150662, -5.030199291706916]","[-2.821029692895475, 155.8422492672396, -7.949873597071706]","[-18.31936811530742, 152.15907926152417, -17.29495251684455]","[-19.303787437599453, 123.29698279849043, -19.575037724651775]","[-21.249078515018414, 111.52454013650168, -19.215352106226767]","[-23.325851193979606, 99.04527797751199, -18.846739652884253]","[-20.09324189314207, 93.88482619216919, -25.097466799427433]","[-20.61420701238773, 93.62873173819426, -18.73282166691054]","[-19.030334020011853, 90.08006873294791, -18.279261838310312]","[-18.63785942398169, 87.29320616361842, -21.489827645397487]","[-24.551352499688573, 91.6768590000655, -27.50682704668556]","[-19.629505185694548, 91.27387486755339, -28.097633738158127]","[-17.411415977433588, 92.40008846944585, -24.03227846319122]","[-23.107097559180215, 88.17633978862685, -23.78497247108425]","[-20.33143134806677, 86.4203707154196, -26.79231642650625]","[-17.951271164706128, 87.60238987748392, -24.620598334938045]","[-16.13663552233438, 159.7374111690209, -15.870836949517845]","[-19.407553959220056, 142.24105277621285, 2.3982271981297503]","[-2.689904290165482, 131.05967533392692, -5.030182956917486]","[0.51025437733316, 155.82089610529928, -5.393182220047629]","[16.642481828640882, 151.8232764778816, 2.6606989574344126]","[23.83260822807017, 123.96172947473246, -0.5517344335932655]","[21.853626295586, 112.94406951438248, 3.595400884539495]","[19.767654156653453, 101.26234486729301, 7.996167743130034]","[-20.072306175761884, 93.90004960236274, -25.110518893066992]","[14.889400871552494, 97.46281116988582, 6.9226155064639805]","[12.810875314579983, 94.30978983018927, 5.23252226061115]","[13.868391291402054, 90.62794490152153, 2.5271239938792003]","[21.219304080413483, 90.06358484554109, 7.166731189008667]","[20.187409830804413, 88.30695895426233, 2.8974369346858335]","[18.838803277926527, 92.20948454861343, 1.2489229157660142]","[16.047402849161887, 89.74939977796441, 8.293554064185301]","[15.600633643213255, 87.17943159833793, 4.531162499871632]","[14.920836334585918, 89.12304127723286, 1.725022954537196]","[14.777632422489566, 159.3996938044734, 0.8401398177629593]","[-5.440268837811381, 142.08794097881915, 13.149304382495242]","[-1.012685471061978, 102.43748571820731, -7.36328290579838]","[-9.7196301300688, 102.5716132798733, -10.361184453326544]","[-7.373358409387448, 53.567661531955096, -9.874730454072859]","[-3.212809653893939, 12.672507910183498, -11.11645199544626]","[-14.127952352686687, 2.070692174132974, 2.8702158431684346]","[-5.262703883562346, 98.20381143392277, -19.672998280993212]","[-1.0126922453581961, 102.43718123430882, -7.363255348100387]","[6.4518101505595435, 102.55282378737705, -1.9700329114544504]","[6.416279116569693, 53.50517935839569, -3.1767780957716205]","[6.760102594798331, 12.392875157586232, -4.138995808211884]","[2.741215181398708, 2.220521546675153, 13.397750761118427]","[11.491152241496545, 98.18513964441529, -10.981233020320122]","[-18.790937764909806, 138.29623826033279, -18.390578701934587]","[20.09825194530217, 138.4337379563941, 1.1182824151545083]","[-8.352308988424362, 84.3945123522605, -10.571597954982725]","[6.623319939557172, 84.3543778100157, -3.0226437772090833]"
"[-1.0234375, 102.4375, -7.515625]","[-1.696494431728054, 113.3656299865003, -6.169724758617132]","[-2.7198408357360124, 131.05789647431746, -5.170116714843356]","[-0.19185470918528535, 159.94594357509158, -8.19946275469338]","[-0.8292758405920642, 173.56660350649784, -6.840436362154085]","[2.855178366745239, 188.49011610149114, -8.084541477012134]","[-2.7198478064410727, 131.05789666396564, -5.170120724248056]","[-2.8664172867056936, 155.83075653054334, -8.16912057770857]","[-18.423964198432614, 152.0344771951548, -17.369432961860856]","[-19.45308098247125, 123.11938270961778, -18.800066367752045]","[-21.514306335900564, 111.38503908798833, -18.051423219019117]","[-23.71457085633804, 98.94598820945473, -17.270585025452412]","[-21.380522612808406, 93.57179138878794, -23.546981940706768]","[-20.971567605364978, 93.54422795573416, -17.227180368649268]","[-19.333258184867468, 90.01847564685184, -16.788555063409305]","[-19.548326066456337, 86.99176088279702, -19.79207227392393]","[-26.507744424960368, 90.8757357518895, -24.877277607151512]","[-21.788572164367245, 90.39512856208542, -26.372088547001148]","[-18.769863410977027, 91.8220438056756, -22.97110329645862]","[-24.332480589495525, 87.69609244793196, -21.223539210594495]","[-22.2398263249801, 85.65588971665272, -24.583634322067642]","[-19.450135120711344, 86.9630199873122, -23.071111732457823]","[-16.374653466044734, 159.624803234355, -15.807973253952706]","[-19.30030011101031, 142.2858548844116, 2.4916325854682793]","[-2.71984180714142, 131.05774352943396, -5.17010398202069]","[0.5053191182648771, 155.81345619115888, -5.665988808218238]","[16.630864226712298, 151.8052170999225, 2.395992435762208]","[23.78883101388422, 123.92715784880579, -0.744194056826732]","[21.412716676859706, 113.26327216593506, 4.066165059682937]","[18.905733732773413, 101.95629792103682, 9.169897912509464]","[-21.352671032637957, 93.58732321873383, -23.5497620747279]","[13.847288569789209, 98.47906499427818, 7.863257356607109]","[11.620393577953715, 95.42585517354064, 6.178892543240443]","[12.304848337968629, 91.56076818134827, 3.6125472578994784]","[19.68157799622504, 90.69238947124221, 8.315549835453435]","[18.791131218278803, 88.48893430026456, 4.225402803808443]","[17.709969360471778, 92.28975829319045, 2.1880370584163864]","[14.457072992585752, 90.70092915900662, 9.221904586757901]","[13.916968191537727, 87.90471923874419, 5.637295279625102]","[13.436381699453646, 89.44277841360756, 2.5522385930659452]","[14.781894892380482, 159.38015234280488, 0.5531940649451697]","[-5.160560460045092, 142.14928647151766, 13.0150953796692]","[-1.0234276735284462, 102.43748571496546, -7.515626715639223]","[-9.74888633298806, 102.57373364860082, -10.459084968545175]","[-7.278542948830413, 53.57557309652753, -10.0045725628403]","[-3.220171962221136, 12.666609584647205, -11.123481829844268]","[-14.125969199435193, 2.0630496070750084, 2.8691525428076243]","[-5.35162643064803, 98.20373348632641, -19.798044419645013]","[-1.0234343697093158, 102.43718123631447, -7.515599080977945]","[6.474672631158189, 102.55111909284385, -2.16915848575254]","[6.413221373924222, 53.500789347657516, -3.2601653866844282]","[6.751374842531698, 12.386663948794222, -4.143330888892994]","[2.7474095882214735, 2.2115675690904038, 13.395237757662244]","[11.456231145194211, 98.18084812598494, -11.211180788957442]","[-18.91697425702856, 138.14616252580498, -18.05703169857811]","[20.071219210874627, 138.40775769359064, 0.8882866496889501]","[-8.333967472391416, 84.40039237042139, -10.679335924131312]","[6.636390301409331, 84.35015329985342, -3.1788776699255283]"
"[-1.044921875, 102.4375, -7.6953125]","[-1.7170185227632087, 113.3621749362125, -6.321179417928068]","[-2.7053788204123954, 131.05602744028036, -5.314465112116027]","[-0.3240569981497199, 159.93907607348896, -8.50597332800331]","[-0.9641773379191108, 173.55455805314114, -7.097239265749443]","[2.627424618037283, 188.48817786502573, -8.483465517038585]","[-2.705385904010616, 131.05602760364548, -5.314468919735967]","[-2.9883619220653665, 155.81885081138114, -8.38571948885778]","[-18.78334768746878, 151.9946016955155, -17.160017376491542]","[-19.752162258010188, 123.04637277098442, -17.659938909596633]","[-21.902513285831823, 111.38556162587572, -16.279572966275772]","[-24.197674914034465, 99.02415661694022, -14.827422544852123]","[-22.732719607857632, 93.25479660296699, -20.702800706373083]","[-21.42086530510903, 93.63952308815782, -14.823576215675251]","[-19.68456235272767, 90.16057769891884, -14.388179414124934]","[-20.464752072474834, 86.84042557050044, -16.95649837052193]","[-28.327112601142275, 90.27855533919887, -20.93109095203374]","[-23.993339770498622, 89.64344342047671, -23.28716300977778]","[-20.36416279744379, 91.39023818683171, -20.738992515663234]","[-25.421922753020386, 87.45186978602983, -17.501596923079436]","[-24.003496710450904, 85.10642151462909, -21.011412881019503]","[-20.9911331355609, 86.54198415092777, -20.209217844182227]","[-16.74129891070449, 159.58483788756055, -15.605035903647234]","[-19.081112646626337, 142.27633673165636, 2.7862190094575183]","[-2.705379115333838, 131.05587453526203, -5.314451876777722]","[0.45405893737765624, 155.8160641635173, -5.980661235333816]","[16.62301195523736, 151.75539885921197, 1.9673374308571256]","[23.652562708648972, 123.80199987944812, -0.7669538899431085]","[20.753566451768094, 113.6421608400476, 4.789791884983139]","[17.69218203602618, 102.8692063218705, 10.684882669756735]","[-22.718225013132287, 93.26712599475836, -20.70670743090825]","[12.449531598785033, 99.76553799268613, 9.178833158122139]","[10.073562212003917, 96.86356491349062, 7.431962188832394]","[10.379375358551888, 92.86722882994574, 4.996951279538099]","[17.60895904839154, 91.55980210889697, 10.139054120521442]","[16.737028808139776, 89.0918285723729, 6.198716742969562]","[15.85734082614564, 92.58069267949239, 3.5872018408674164]","[12.36063749985512, 92.00426895710928, 10.751079069800262]","[11.723732779149932, 89.005397297276, 7.350925289426597]","[11.434131569777676, 90.09062292577879, 4.056599872012672]","[14.806550518511587, 159.33019730134063, 0.09198452950475122]","[-4.644063204902086, 142.20071754433224, 12.898589783174607]","[-1.0449120498265887, 102.43748572992028, -7.695314342814531]","[-9.799795154995756, 102.56947273447284, -10.550290775629762]","[-7.2872941485718625, 53.573942207216824, -10.046066158932213]","[-3.2177150540258, 12.665045886494731, -11.126045928985969]","[-14.12734167198662, 2.0612145923357073, 2.863397348200243]","[-5.491931501930667, 98.22269561897875, -19.941755025054817]","[-1.044918114665784, 102.43718119009222, -7.695287241650506]","[6.506620632613458, 102.5494735479104, -2.424550059377153]","[6.416219949979496, 53.49379391153059, -3.237595804526821]","[6.758269674975462, 12.380168586944485, -4.1422774107516735]","[2.741554274504586, 2.2087951030761097, 13.395535255233654]","[11.401734557085375, 98.20277349463672, -11.524957698461314]","[-19.24756585218018, 138.0903670624765, -17.400633376500206]","[20.00166590327938, 138.32175516666766, 0.6546865514402098]","[-8.3712291207403, 84.39701335066026, -10.75463878306621]","[6.6489428797170245, 84.34304426031827, -3.3336805218631413]"
"[-1.08203125, 102.4375, -7.89453125]","[-1.768298093177176, 113.35287745918986, -6.455069268469165]","[-2.6295241475181994, 131.0530291980374, -5.4423194417601675]","[-0.5822858705057179, 159.94017018956308, -8.82297284149225]","[-1.2190434807814596, 173.54476830132964, -7.31132306160961]","[2.1193775163638984, 188.51116132274038, -8.953350372646824]","[-2.629531396564984, 131.05302930403906, -5.442322926312632]","[-3.211686415144314, 155.80349497564185, -8.57051941564183]","[-19.460407706466185, 152.06482377135706, -16.513828082539717]","[-20.28562558549045, 123.11020907372225, -16.142638142426424]","[-22.444340971956922, 111.6096505991062, -13.780215963584068]","[-24.748728140857487, 99.41794721483224, -11.283623360554309]","[-24.07580971035506, 92.97942040233039, -16.15883552531641]","[-21.906629629185765, 94.06748707572605, -11.279501765541733]","[-20.001400891455425, 90.67589119803277, -10.861697509217786]","[-21.233998250059525, 87.01582585761199, -12.681860653510405]","[-29.88802725478959, 90.03095356166313, -15.316552831629108]","[-26.15685672504768, 89.14245145339365, -18.482772778811515]","[-22.148569991836897, 91.25020276452248, -16.997373102160918]","[-26.240812152928516, 87.61567193184644, -12.307243074527856]","[-25.44171317328644, 84.94915907150126, -15.783306716975039]","[-22.405150500527952, 86.54759144486736, -15.728606602059525]","[-17.28987537918521, 159.64486735914048, -15.08917860847651]","[-18.695780276448996, 142.19508894442674, 3.356032721352146]","[-2.6295228513630775, 131.0528763378171, -5.442305756774914]","[0.33565846638464825, 155.83037624822938, -6.32325529443737]","[16.611043884349293, 151.6360736077151, 1.3327477192831703]","[23.37248097055268, 123.54458518686164, -0.5205450752983205]","[19.823451474852035, 114.07197555267535, 5.818065882690833]","[16.07273414162441, 104.02730643759737, 12.542458813973257]","[-24.03997948932529, 92.99055715608046, -16.17005550241001]","[10.641802562788858, 101.33975659211255, 10.908939958795003]","[8.155769575134588, 98.61897057469614, 9.02872717784122]","[8.122228882849281, 94.53917882381911, 6.716223728486481]","[14.864757661268964, 92.77241665327608, 12.817644731023465]","[13.895662889211447, 90.26914878075266, 8.922529456339102]","[13.075861479899203, 93.04483783214266, 5.547690118159976]","[9.662019805620725, 93.7735706389364, 13.032618908385405]","[8.941709219781881, 90.5637875541721, 9.848538736453566]","[8.82954252775344, 91.1249759357369, 6.415369785855463]","[14.851854259269542, 159.21620434661594, -0.5755252492032437]","[-3.8171107427547124, 142.24397830341485, 12.806797782822287]","[-1.0820214081338997, 102.43748577133661, -7.894533311063527]","[-9.878769436938546, 102.55543229383333, -10.618427934948626]","[-7.444853670984967, 53.558035637527425, -9.940128409771127]","[-3.2057051400798215, 12.668444360902186, -11.09623075592357]","[-14.132805678855014, 2.0691290600007886, 2.8829932293873597]","[-5.697293347817297, 98.26998993911111, -20.09481980284177]","[-1.0820261038678973, 102.43718108086046, -7.894507670742447]","[6.546653964726518, 102.54768501527462, -2.7360003883661212]","[6.442225523344883, 53.486325853123695, -3.0538869676168012]","[6.80048121527535, 12.377073668555106, -4.134010314673694]","[2.742231044387995, 2.2162084717922603, 13.400331368652271]","[11.319655924014448, 98.26251862190637, -11.930126991666047]","[-19.85603545504394, 138.15752265328874, -16.33609347715404]","[19.86085852138809, 138.1361094042663, 0.4434732844025342]","[-8.486458987604463, 84.37961807498262, -10.767048864794264]","[6.662719196731596, 84.33304856892428, -3.4670196921957626]"
"[-1.1416015625, 102.375, -8.1171875]","[-1.8603501137867866, 113.27200492538347, -6.559252276338528]","[-2.4780241700648213, 130.98205924903152, -5.5418071083878395]","[-1.0056646778584712, 159.87887785293978, -9.132482328395355]","[-1.6506599801366977, 173.46103312217872, -7.434049444499174]","[1.1971308409824055, 188.48375256932152, -9.444575835097396]","[-2.478031631257082, 130.98205925578867, -5.541810113813918]","[-3.562715302836291, 155.712117772205, -8.697398142998264]","[-20.46557181835748, 152.1658005139878, -15.240472435543062]","[-21.324439570210334, 123.2406343989476, -14.302091170739411]","[-23.254277871253997, 112.09551026026256, -10.485565530311879]","[-25.293989298954024, 100.3298598808189, -6.435150477808248]","[-25.24525834474092, 92.79018298559163, -9.531812243435168]","[-22.349429637558142, 95.03526157811997, -6.393176065434872]","[-20.212098133382153, 91.77490094011847, -6.062657308118445]","[-21.65044003909872, 87.81066601996913, -6.729274742897814]","[-30.938706975473316, 90.45686619502455, -7.640854993193133]","[-28.10862240104108, 89.13891917931936, -11.51250264548136]","[-24.03842257578672, 91.61380793046095, -11.358112554084974]","[-26.563878189307527, 88.50716500660712, -5.3492950589175345]","[-26.335974956272985, 85.50323842238626, -8.628983063384307]","[-23.504120661425063, 87.29397624838823, -9.372320426232363]","[-18.03988018911584, 159.72307170878182, -14.153441520979266]","[-18.071640493282594, 141.9642847715413, 4.251605714304292]","[-2.4780201319190183, 130.9819064666539, -5.541793092530665]","[0.12276503166827402, 155.7895591585102, -6.685977779810661]","[16.564494241709326, 151.31801078879437, 0.439295767603868]","[22.855278084873696, 123.05820587867356, 0.1344803765032509]","[18.539347746675432, 114.4585800246952, 7.200109362896477]","[13.999862543017418, 105.39112462336152, 14.694909197129704]","[-25.235734641987523, 92.79913414161408, -9.532632992942759]","[8.339384631743672, 103.15466994674888, 13.16403162801415]","[5.828867040276171, 100.53598297234284, 11.17455268128456]","[5.574214548342916, 96.33684228829809, 9.101897405829746]","[11.346175556134348, 94.54898929568495, 16.595836716855114]","[10.141801323859315, 92.26649789791708, 12.631352143538992]","[9.075777437352622, 93.6250305443291, 8.538751435040536]","[6.3107152718565604, 96.1915802626752, 16.34476096104755]","[5.465284294078784, 92.70649995503223, 13.498819881416797]","[5.42405677065243, 92.61498206462447, 10.021681533015798]","[14.899272533457001, 158.9164685976243, -1.4804579891230079]","[-2.6111837462047425, 142.2253363756822, 12.71330097832319]","[-1.141591683962483, 102.37498584967706, -8.117189897505039]","[-9.992665903450328, 102.46748225171208, -10.660125186864807]","[-7.795677400423718, 53.464479389987964, -9.65619944068179]","[-3.1878516298180513, 12.623328652227343, -11.082374516244439]","[-14.139086161725473, 2.025582281649692, 2.8791421762923353]","[-5.981142045786322, 98.29630018033782, -20.26045233296323]","[-1.1415941218317387, 102.37468090738003, -8.11716709367835]","[6.590004825252267, 102.48162320254175, -3.1141269422026605]","[6.514550497593688, 53.42136171735552, -2.651557994564634]","[6.860597371983971, 12.324302964726563, -4.127240714465577]","[2.748925059819234, 2.1808334373065055, 13.404726973378088]","[11.198681610207599, 98.31152052627296, -12.444298897189238]","[-20.877942199750088, 138.26514716681626, -14.790003248767649]","[19.588094787020985, 137.73721843792487, 0.29418707748599127]","[-8.702334556675433, 84.28359063354002, -10.704506804657404]","[6.678496870160902, 84.2577147320385, -3.5637606370190493]"
"[-1.2353515625, 102.375, -8.3671875]","[-1.990519446123228, 113.24486929452837, -6.645519430438999]","[-2.255279615942221, 130.96433111863266, -5.63888704430822]","[-1.5948005679697204, 159.864248808392, -9.439602894787052]","[-2.279322027184744, 173.40382702847347, -7.442883874248766]","[-0.19156619855945545, 188.48985654557396, -9.869242776991525]","[-2.25528730800696, 130.96433098556568, -5.638889393021645]","[-4.0324675137671155, 155.67271269056482, -8.773244839862473]","[-21.666794140291223, 152.43585818878367, -13.27051449750636]","[-23.196775075882798, 123.55151246068355, -11.99099209874032]","[-24.331966242506105, 113.11451799087381, -6.309053739104207]","[-25.551833956641623, 102.05160535072811, -0.28371832267921526]","[-25.8113498676795, 93.13036528677875, -0.9553090493663597]","[-22.530021701233988, 96.80135626256194, -0.19152372937336382]","[-20.2102463075731, 93.65265633646567, -0.08330450951041798]","[-21.458787443829607, 89.62811447395367, 0.6041346312049216]","[-30.93064347865535, 92.21446495370994, 1.9727484466333012]","[-29.336013664781436, 90.20636108689072, -2.2887880362428765]","[-25.599183385852804, 92.83470613397661, -3.6464842571592007]","[-26.006492581474856, 90.63157532867436, 3.172292919135071]","[-26.429261120694722, 87.24264973764677, 0.3142655757596402]","[-24.040992517016885, 89.09798076129925, -1.3082676811766305]","[-18.906993656981598, 159.94596803294314, -12.76476394440665]","[-17.130126517295132, 141.72987264945962, 5.4301295058650885]","[-2.255271760628446, 130.96417849478328, -5.638872921262119]","[-0.18953821890085276, 155.80637694418428, -7.08553573017189]","[16.467039000738925, 150.89447300601034, -0.798536257424959]","[22.080765580446926, 122.56169615528441, 1.2072745980040551]","[16.967497882276437, 115.00495322267355, 8.904940613044074]","[11.557650773746555, 106.99131663577081, 17.071696440226823]","[-25.794878087399365, 93.13291849776807, -0.9582195647837963]","[5.674842634302018, 105.19610512007338, 15.822738883727844]","[3.208017979583602, 102.40592556601639, 14.02053986712051]","[2.8638685009213787, 97.91968606768152, 12.698110535679483]","[7.394848511551404, 97.38183428780127, 21.37742775359427]","[5.999195822093451, 95.21634463164533, 17.41003150060077]","[4.427523820422732, 94.29524996120898, 13.358751671667427]","[2.6404375661886768, 99.54817515899452, 20.471632706156903]","[1.5881042256972244, 95.63828134860606, 18.33499033260333]","[1.45019152781452, 94.53692331329428, 15.038241384091444]","[14.922620462173427, 158.52855758603022, -2.677297370773597]","[-1.0028816032673424, 142.29134612014516, 12.521735567547498]","[-1.2353416517397802, 102.37498596001494, -8.367190367197969]","[-10.156530179849266, 102.43073963041016, -10.653175157692191]","[-8.34942132515841, 53.424380064759454, -9.156514078339312]","[-3.18229963241684, 12.670652135412197, -11.08008906809284]","[-14.142955523613274, 2.0769042783751885, 2.877068344511658]","[-6.392622638564043, 98.41643544260468, -20.419081409452062]","[-1.2353411508156955, 102.37468073759185, -8.367171531493446]","[6.636410726528185, 102.47688684395992, -3.587606239108114]","[6.657370075902612, 53.43947235624175, -2.0190202495396745]","[6.880728871475303, 12.36934868039743, -4.131052061125767]","[2.743392722197762, 2.2351477660927515, 13.400238127571232]","[11.004975956004502, 98.46508430492841, -13.100610020425425]","[-22.401889057353564, 138.5548264288298, -12.655918667420446]","[19.16522491409127, 137.27870582057162, 0.16676909119888683]","[-9.031247569697888, 84.23620698131676, -10.536728573138298]","[6.707340862201084, 84.24741445543773, -3.6339375974669217]"
"[-1.384765625, 102.25, -8.6328125]","[-2.091422456303756, 113.1065575006659, -6.809553509408362]","[-2.049801850494839, 130.83035654333483, -5.846255875310417]","[-2.184381785870644, 159.7338901502425, -9.674381882622786]","[-2.922322501447384, 173.21153866217355, -7.311318418429881]","[-1.579804390964123, 188.3410973822844, -9.98121103302079]","[-2.0498097307116243, 130.83035629544284, -5.846257469912093]","[-4.482905580775343, 155.50770246798047, -8.776985686532718]","[-22.599278608645463, 152.63563274156553, -11.061804200265652]","[-24.875734276787004, 123.8459983995433, -8.998275333291225]","[-24.79897669163112, 114.38291279161511, -1.721733903118598]","[-24.732906073465536, 104.35359712992484, 5.997672735059268]","[-24.46085779226424, 94.59768252845342, 7.622643596278749]","[-21.393109517985437, 99.31481546061802, 6.399422526368695]","[-18.910473799637085, 96.29131534213022, 6.447864452797772]","[-19.816872021113973, 92.38288759444376, 7.9076600623427105]","[-28.626523147445813, 95.15079778832164, 11.560117854353578]","[-27.969671020453916, 92.20749868411549, 7.605177381663509]","[-24.715882465853372, 94.57465853758946, 5.050807675719557]","[-23.45333460431644, 93.97074693655678, 11.753272841973175]","[-24.354092169614866, 89.87936873767617, 10.242931635556753]","[-22.64389199359169, 91.14923461401428, 7.55195594055526]","[-19.60868466885706, 160.07182447147716, -11.19029488429916]","[-15.942183652527214, 141.38493907717742, 6.615028070636885]","[-2.049790425171108, 130.83020406250046, -5.846242674442548]","[-0.498817971900813, 155.69892071462303, -7.46992018957901]","[16.400931260589314, 150.25822035783384, -2.381503648259346]","[20.994893540249514, 122.0971289387234, 2.53091816076539]","[15.354586430360325, 115.51560384876163, 10.739108949686615]","[9.385803257541236, 108.53605857481324, 19.44774225728201]","[-24.439590309045343, 94.59297627341718, 7.622224341741475]","[3.4523745764096967, 106.82183592549515, 18.333206196549938]","[0.5212713705069603, 104.02083370342667, 17.50781710120062]","[-0.5657464426642878, 99.46462052488219, 17.737928419541316]","[4.268269091173055, 100.80956831814468, 25.953099349165168]","[2.7839411296506875, 97.0641285145464, 23.474011810855927]","[0.705269890023775, 93.83723238662799, 21.23845602963141]","[-0.24924417975339352, 102.91454106807114, 24.1425281786221]","[-1.9049455238267459, 98.64962147827467, 23.972163405178325]","[-2.56131981408429, 95.73967195834904, 22.182770459429474]","[14.945495457476762, 157.9553359295966, -4.063757252363077]","[0.784790404503048, 142.18883006009256, 12.115596740550382]","[-1.3847558206812476, 102.2499860159183, -8.632815947602891]","[-10.409934349307106, 102.28426329068212, -10.466232780478405]","[-8.953326701585791, 53.280869893445804, -8.549296544271696]","[-3.189468456956998, 12.640896710244967, -11.086252467471056]","[-14.139781915447031, 2.0433551443519864, 2.876142104517605]","[-7.1283918258108026, 98.34202724648354, -20.433419778224863]","[-1.3847532697780425, 102.24968069260497, -8.632799008610004]","[6.717395504085645, 102.35463767098487, -4.255204078778235]","[6.856355326672799, 53.37584807492203, -1.3937743286711068]","[6.857912336338675, 12.342122262532008, -4.132198929819813]","[2.7460656950977356, 2.197657915425058, 13.39915226092152]","[10.61555708134733, 98.41578441758509, -14.0002507223541]","[-23.693161991146113, 138.80012398282813, -10.070213647569622]","[18.608999825767746, 136.7250789025645, -0.019374683533120773]","[-9.431011102549808, 84.08270203834233, -10.209880839208745]","[6.792936231850009, 84.13024013444348, -3.8233831890482]"
"[-1.591796875, 102.125, -8.8984375]","[-2.1083870787997854, 113.00216581009308, -7.135236847473591]","[-1.9339199865529269, 130.7292540684868, -6.250574440553866]","[-2.614986440090068, 159.66436407757809, -9.76944815326554]","[-3.3899116844723833, 173.07870325975057, -7.080465045218551]","[-2.4932886677643857, 188.23999387727423, -9.757321876019065]","[-1.9339279806064635, 130.72925377761746, -6.250575284665591]","[-4.791297316978802, 155.41361925579986, -8.699672838791853]","[-23.09924188601097, 152.89563156055308, -9.08834412563889]","[-25.376883908225537, 124.19741490620441, -6.004814400978897]","[-23.944170089558956, 115.82794412699307, 2.3858486373860144]","[-22.439285732372834, 106.95866732833495, 11.288209070257064]","[-20.55358484097269, 97.78142951038812, 14.44445836595061]","[-18.128389423911365, 102.79299802529454, 12.164757365079621]","[-15.021928322057944, 100.4778572610607, 12.710101309544957]","[-15.998259637687983, 96.64092903701795, 14.307955623893871]","[-23.58928295826879, 98.91574068099538, 19.33689857052422]","[-22.753484103926677, 95.09622422668788, 16.26301263680941]","[-19.85229147795356, 97.22307772118668, 13.136527262037543]","[-18.308303943223446, 98.68235216265197, 18.838401823378863]","[-18.47048480567775, 94.36877878889452, 19.93323276291756]","[-17.436361374048314, 93.96459751817909, 16.68578493850427]","[-19.988594440495298, 160.25706240781065, -9.71341962230044]","[-14.6511458589012, 141.06987005592518, 7.57060167765941]","[-1.933906388093009, 130.7291015621946, -6.250563851951221]","[-0.7026516667304856, 155.62205345926392, -7.773675735181211]","[16.4456613414434, 149.73050564318848, -4.263725198010468]","[19.930441583608125, 122.09662488460859, 3.6424994545100606]","[14.217584144906006, 116.23077767918738, 12.329215217410837]","[8.17221846687674, 110.01006365839926, 21.545342002433905]","[-20.53725766374358, 97.77154921091656, 14.423160659590271]","[2.601424648535845, 107.41200774812928, 20.27936903399114]","[-0.8121287960819226, 105.1314374840629, 20.794050630766215]","[-2.6477233675843115, 101.69822375824393, 23.408854777507656]","[2.6519510285828893, 104.01980922897077, 29.409881264442795]","[0.8040214648650503, 99.89618935122455, 30.809288520436844]","[-1.8329183491915602, 96.36641197846755, 31.373786432370412]","[-1.6691965327182956, 104.99972012309952, 26.497071145749874]","[-4.262923425787717, 101.87019761183379, 28.603863813858414]","[-6.0054516170417775, 99.11398112762507, 29.81523774311684]","[15.004482902298964, 157.50661526931145, -5.54779988586019]","[2.516026460979968, 141.9459248805807, 11.471227267627413]","[-1.59178743154633, 102.12498593678428, -8.898441575821323]","[-10.734256154975343, 102.18363586202547, -10.006712984636515]","[-9.433120851294637, 53.17920015779152, -8.006402239825828]","[-3.1879136989367955, 12.647689799029713, -11.082062051967416]","[-14.135300461124764, 2.0486823716320774, 2.8815148141853673]","[-8.273664268393588, 98.12820728217235, -20.16316657883649]","[-1.5917847280350037, 102.12468078618136, -8.898421787875282]","[6.834098407778612, 102.23461083339855, -5.182028797736745]","[7.0036235733973005, 53.35495297343209, -0.9536451137526534]","[6.8453865336382735, 12.353104784428119, -4.129968773507025]","[2.7484834031755225, 2.2013868102828127, 13.400682132176298]","[9.927073235489287, 98.18185212614156, -15.166257175314422]","[-24.193645732272405, 139.1040731219266, -7.606341646896545]","[18.120696669422887, 136.45085970480164, -0.4628834330374012]","[-9.817924940963799, 83.97920655571448, -9.723994354116549]","[6.913843814820696, 84.0293928456076, -4.241539610663617]"
"[-1.80078125, 102.0, -9.140625]","[-2.075085815345587, 112.9059915477122, -7.505821254298502]","[-1.83013766505372, 130.63679222170208, -6.717512286563954]","[-3.0930187759584733, 159.62364100853216, -9.590601822229269]","[-3.7986473717462763, 172.988948400283, -6.65014578060957]","[-3.1748874912456704, 188.18631584924452, -9.196746406625936]","[-1.8301456988501628, 130.63679185559948, -6.717512448134745]","[-5.127918240641663, 155.32883395254535, -8.422883598298311]","[-23.430075613546872, 153.08121810137357, -7.137803406051978]","[-25.767532631504938, 124.46367204591405, -3.41546528390131]","[-22.9748160243159, 116.97333006877861, 5.450167683893351]","[-20.02681429755851, 109.03643695282449, 14.857386921618149]","[-16.30018523223915, 100.6705170063097, 18.958738314425236]","[-14.903112663496515, 105.91821482062704, 15.711399179809344]","[-11.251344589896952, 104.8158289924612, 16.58129041225962]","[-11.301162931592705, 100.70872618415129, 17.746426918754704]","[-18.83824252791876, 102.02515565956378, 23.814049085669673]","[-17.408017977806708, 98.03126821892543, 21.218021129365486]","[-15.292844224205803, 100.46640969757465, 17.709251942062778]","[-13.681022135548584, 102.74194823445293, 22.77434009087194]","[-13.023686733724645, 98.86341463229365, 24.86162426755243]","[-12.21328351356689, 97.66909109067305, 21.747859331701427]","[-20.281820180905616, 160.39553042515007, -8.0591435707561]","[-13.413375678009892, 140.56825262152765, 8.344883726041852]","[-1.8301217206874931, 130.63663970760766, -6.717505927792727]","[-0.9770706639315384, 155.5663831723094, -7.846712209323963]","[16.386964419890177, 149.5214746921055, -6.1019788054632755]","[19.771659816920852, 122.60386545803165, 4.010864393430344]","[14.092811282883792, 117.21097540897927, 13.020378914998469]","[8.083853786928929, 111.49201417850932, 22.5789686676722]","[-16.27247835165231, 100.65911308517354, 18.95691700973252]","[3.1168030760442447, 107.80042371359896, 21.536427104441024]","[0.2874102398554852, 104.82173458466778, 22.02654948161573]","[-1.6731386126995833, 101.55972748249278, 24.766826933948913]","[3.241219794810455, 105.77220793195193, 31.0563681441225]","[1.326282953355835, 102.41546954955822, 33.78450861706545]","[-0.302320832196743, 98.33688260649757, 34.4510042678422]","[-1.0193247948331319, 105.55666087253276, 27.9062882457077]","[-3.5496023821892035, 103.03584112649473, 30.7703888929986]","[-5.392910132275658, 100.95661210574364, 32.86313425495004]","[14.889123272242564, 157.31586809528196, -7.196046883611902]","[4.016040306409055, 141.56631533143667, 10.776649911056344]","[-1.8007722914865072, 101.99998578290786, -9.140629602662264]","[-11.001589046975297, 102.13755958799558, -9.51810035421281]","[-9.713613679387986, 53.12801140377885, -7.638147927039142]","[-3.191173572018174, 12.669872105575855, -11.082326681133441]","[-14.14305053299466, 2.07412098418245, 2.88020043500992]","[-9.396470384045536, 97.91225731877903, -19.776023039698742]","[-1.800770823453125, 101.99968093428748, -9.14060550026023]","[6.895390541883478, 102.0753236354427, -6.109067313034272]","[7.081254811552409, 53.33521678484116, -0.49690560508210524]","[6.854544796386684, 12.371283815423709, -4.126013486279558]","[2.7425331186331627, 2.2282004211135487, 13.406098008974059]","[9.144613826923289, 97.84859542924049, -16.245729781749308]","[-24.553126079119775, 139.32844205539735, -5.348657248440183]","[18.013872365047256, 136.5861493317829, -1.2407375994632623]","[-10.091040541074806, 83.93218967679387, -9.28093607907244]","[6.986184487496552, 83.90413990601134, -4.652811984136495]"
"[-1.9638671875, 101.8125, -9.3359375]","[-2.023339084813015, 112.72980677733496, -7.755635697659921]","[-1.684802466972612, 130.4632374448789, -7.067488515783589]","[-3.831891208721243, 159.4781872424664, -8.967386707901083]","[-4.292843876954712, 172.82372513111181, -5.89171180434932]","[-3.930555683906409, 188.0603725975031, -8.247035511569816]","[-1.6848104803596984, 130.46323687861243, -7.067488107138008]","[-5.674951275369898, 155.101498152323, -7.785398448978269]","[-23.834337902844304, 153.11571381182873, -4.963071532115707]","[-27.170579950411806, 124.57863641136687, -1.3870189567696118]","[-23.097381837320093, 117.4641371946125, 7.290359405535943]","[-18.790414320349313, 109.92585716214491, 16.49932887747815]","[-14.04774456083865, 101.2244170893661, 21.098792447954004]","[-13.508717995150748, 106.99528384412027, 16.968784513105565]","[-9.839661412463343, 105.89478002593175, 17.765187955718794]","[-7.648025612111381, 102.35074774040945, 18.69509518579208]","[-16.988539648005087, 102.36948837876496, 24.89260617663189]","[-15.642981627386927, 98.56078256915494, 21.991011444035564]","[-14.856823140797704, 101.08700913391147, 18.026722373847846]","[-11.906477726234327, 103.39407947571313, 23.746059940276567]","[-11.48820127932321, 98.96079585813918, 23.79990374199702]","[-11.197307020058107, 98.95898905200329, 20.380242804962773]","[-20.63585257717139, 160.40379229629912, -5.9141493963965726]","[-12.36664138338556, 139.66494430185963, 9.08515803085573]","[-1.6847825378411139, 130.46308526838683, -7.067487923528009]","[-1.499741264841153, 155.42840783040762, -7.504870190030294]","[16.091204521451875, 149.80233921999056, -7.478295978905291]","[21.150011264453877, 123.50955957712021, 3.539038560225939]","[15.22482818127525, 118.38477941366777, 12.546411546501684]","[8.954219718815903, 112.95107947589841, 22.103351420202884]","[-14.032240026439197, 101.20768676844727, 21.095066278628614]","[4.2337383852468236, 108.86942725028426, 21.434559929446273]","[2.6403822849337306, 105.07821423112865, 21.888698159811867]","[1.495952377793585, 100.87541522779789, 23.62663850932463]","[6.474817948675321, 105.56414666587898, 30.318780139736425]","[6.1565747667505235, 101.0838006139407, 31.802911037810805]","[4.546715381573748, 97.37426824809104, 33.641140608786095]","[1.7020621703968306, 105.28236986684674, 28.025658138846005]","[0.9709864959005063, 101.70296953770104, 30.78488525616624]","[0.5100044991215444, 98.57743429950227, 32.24059343937899]","[14.281918930206109, 157.47534317890026, -8.908234023550412]","[5.1656684916183195, 141.03812424187345, 10.279580405309073]","[-1.9638586474342954, 101.81248564898881, -9.335942467990385]","[-11.169623786283646, 102.06103021992053, -9.243457372909685]","[-9.795733415708268, 53.05058308488886, -7.449742881566904]","[-3.189925916806109, 12.622349958456432, -11.081120202539736]","[-14.141795370882392, 2.0260060440908685, 2.880962929044699]","[-10.142434514903686, 97.76036716772435, -19.54412446402449]","[-1.9638596031868594, 101.81218094151883, -9.335916618299473]","[6.8763512057418215, 101.79752865849967, -6.753354662581246]","[7.125111893134925, 53.222587021253894, 0.14172209863678376]","[6.859095546061332, 12.320650868727732, -4.127526082631086]","[2.739756739093573, 2.181695296803463, 13.405252988807387]","[8.552943975535948, 97.48818832627228, -16.965836501245093]","[-25.43724496377351, 139.40159533810643, -3.2441245479207064]","[18.522548028393132, 137.1673493088458, -2.1823790235390366]","[-10.232113998862292, 83.85658859905763, -9.042908769870106]","[6.993377034953542, 83.67120937536815, -4.818491503575383]"
"[-2.09765625, 101.6875, -9.5390625]","[-1.9824933792982513, 112.6020597293514, -7.942941746921421]","[-1.6381252656628342, 130.33728047905092, -7.30570781224057]","[-4.478865141810027, 159.3460946492251, -8.016913078939954]","[-4.729636404286677, 172.73913399786608, -5.129137873325858]","[-4.5454737969105805, 188.00667744047752, -7.297646549287561]","[-1.638133223374385, 130.33727972176314, -7.305706915935039]","[-6.154643684446254, 154.89128855148368, -6.878716213946416]","[-24.139903693144177, 153.14344471463986, -2.98671436886647]","[-28.651899262508923, 124.73999837324098, 0.35537815168613607]","[-23.544606048443725, 117.82544997609857, 8.638403813996844]","[-18.13990397161224, 110.49915702195277, 17.430182520805587]","[-13.235488381412036, 100.97924839122541, 20.704039060900136]","[-12.797027388207258, 107.65155597757825, 17.207017236013726]","[-9.47358505966969, 105.62618626166251, 16.807075659255375]","[-7.516471191397689, 101.8368318797844, 16.610340331795477]","[-15.705075542401879, 101.99694883833652, 24.681157066928478]","[-14.478012519406775, 97.99270099695805, 21.998558692499238]","[-13.871157835648713, 99.05728099249265, 17.392704001565637]","[-10.720430129875062, 103.26975089860898, 23.367766952948678]","[-10.402032350712796, 98.98018560536336, 22.214465861113574]","[-10.071484489521646, 98.75334638889939, 18.80594878512398]","[-20.848371889897884, 160.4005841775492, -3.8477960405984977]","[-11.440064045729327, 138.73343045593626, 9.814681899916588]","[-1.6381023217444812, 130.3371288521302, -7.30571398146333]","[-1.977343416955995, 155.30052570123527, -6.853418409682076]","[15.885762562743126, 150.79059393543594, -8.14364654661252]","[23.377921140363252, 125.37095103504294, 3.5179469131726435]","[16.954917127326155, 120.08413281183974, 12.079401505276264]","[10.154997911183967, 114.48026803549615, 21.164472620836023]","[-13.217149007475088, 100.96706845433435, 20.6935579830676]","[5.150548282541582, 110.8968160511711, 19.93944950815626]","[2.2665928733582144, 108.09872304592359, 18.953708329514843]","[2.935047223769783, 103.47091725231971, 19.31441955060517]","[8.39791610861389, 104.84488161012506, 26.84623183659305]","[9.137972171506417, 103.47621781815637, 22.378962481945834]","[9.287647804962747, 106.6741812456535, 19.299672734786537]","[3.345174379670751, 105.38373578620428, 25.330528015568635]","[4.576659030739132, 102.21546947319005, 22.263691741675224]","[5.043560446071613, 104.79523012660786, 19.97733954288637]","[13.422597470747228, 158.19352316063478, -9.966705938522706]","[6.1020328275672, 140.4518398150412, 9.941426019426178]","[-2.097648050195513, 101.68748556714323, -9.539067793488893]","[-11.290822239806058, 102.03429510214706, -9.1127918803591]","[-9.916254784505416, 53.02647952880383, -7.249061223269317]","[-3.1843307909333536, 12.637844998264882, -11.083774748817763]","[-14.132678010007384, 2.0396287171489966, 2.8796495838164144]","[-10.683607981946306, 97.74080207687388, -19.449704934879843]","[-2.097651344564657, 101.68718084285071, -9.539042337351587]","[6.829613733584964, 101.57350985048843, -7.27847045820996]","[7.055902919932722, 53.17302189664715, 0.750880648179888]","[6.853073816382077, 12.33954590985261, -4.132942136804105]","[2.742400040945582, 2.19546266844916, 13.398904616100513]","[8.088868144554022, 97.26424250998551, -17.550795221196008]","[-26.307728186608028, 139.4935126838117, -1.3801566155526384]","[19.48632856379221, 138.57523144034593, -2.538115238434032]","[-10.35987287103149, 83.82974618175653, -8.892403667934325]","[6.948558350720314, 83.49748189327059, -4.919676969964853]"
"[-2.224609375, 101.5625, -9.765625]","[-1.9880063135890493, 112.46903009313438, -8.12852442581052]","[-1.8116845538734103, 130.2046086824423, -7.43507207975645]","[-4.668426648882944, 159.21603232658327, -6.922003741522585]","[-4.944223331122288, 172.72299640152434, -4.628209401457829]","[-4.792040334181152, 188.00843102757165, -6.6694240261313595]","[-1.8116924448509122, 130.2046078817868, -7.435070740560297]","[-6.27678822380947, 154.72047607270002, -5.849631871890304]","[-24.18650335232848, 153.13440284453216, -1.5602607184774158]","[-29.141729458785154, 124.83912241398937, 2.0600004603840567]","[-23.338793073731864, 118.36445176968559, 10.23976249758674]","[-17.19547909068269, 111.50469846093866, 18.92217078258102]","[-12.778488076810973, 100.89656835857248, 18.875573179762537]","[-11.601961007119545, 109.46512123210779, 17.800723140360013]","[-8.013371341314102, 108.43854411227494, 16.627902056931596]","[-6.646228265804023, 104.80625795699795, 14.848640739403223]","[-12.542964274936807, 103.27211258551992, 25.354215639303128]","[-10.678351131129023, 98.87921021923894, 23.953616100736237]","[-9.075808750873811, 96.66529749317746, 20.049005013124273]","[-8.037329182087033, 105.28288734644852, 23.392648450637026]","[-6.854603043117033, 100.99069323150411, 23.493052605280344]","[-6.0424506433038205, 98.39249542865791, 21.40296389094087]","[-20.827074628703322, 160.36271221233494, -2.400168022473135]","[-10.573176222263363, 137.9595033328393, 10.53097798375605]","[-1.8116621288436072, 130.20445741238126, -7.435085106362078]","[-2.105011489027081, 155.1344521067931, -6.056626278424191]","[16.048542025681982, 152.33449536483036, -7.9810654431060915]","[25.614917255302693, 128.36388404938165, 5.140584815292447]","[18.63326316163512, 122.24024139427114, 12.641347274161589]","[11.23828158736126, 115.75134771203966, 20.60308193384142]","[-12.74722314913194, 100.88418038517561, 18.87533444546202]","[5.83437187252623, 113.7562109088214, 18.112396332137088]","[3.083063653707373, 111.64313356899086, 15.85774640758772]","[4.398409878323893, 108.05432212724223, 13.140432539665598]","[8.221815097967443, 104.85822645999606, 21.27482230007575]","[9.381543651849167, 105.13500635479463, 16.69706818093649]","[6.752643893571655, 108.35234423211175, 15.125759067382333]","[3.293111646376272, 106.62328050576845, 20.431977487951265]","[3.2259845907597904, 104.01773065090872, 16.668130420014304]","[3.636206263498115, 106.3707197182703, 14.136463492175094]","[12.816718588772614, 159.43475959031386, -9.8075594842469]","[6.94673875449937, 139.69712067452048, 9.678087199245503]","[-2.2246014659390716, 101.56248554794328, -9.765630670095653]","[-11.39222851747863, 101.95589837405882, -8.980595460481696]","[-10.295109627100477, 52.95314173650648, -6.82303043563707]","[-3.185830021522266, 12.671340838319274, -11.077473718857881]","[-14.137679696804431, 2.0705702582950227, 2.8812642636257166]","[-11.210725788466878, 97.70564944821444, -19.351564741964452]","[-2.2246054284445824, 101.56218073421248, -9.76560640797888]","[6.783039689309947, 101.39125774004036, -7.8545117338518935]","[6.809386965318724, 53.160897436582594, 1.14329750443264]","[6.856791109334353, 12.375292816277472, -4.129067666567665]","[2.748815222212605, 2.228117253211572, 13.401621893944807]","[7.618504931055038, 97.12150373454824, -18.186373196441604]","[-26.567231208544452, 139.5364382247489, 0.18003476475250157]","[20.64563654402664, 140.81549346711117, -1.6738905629801533]","[-10.56870259359185, 83.74775339818899, -8.654864472269345]","[6.8512409634482125, 83.36613459693491, -5.1321734968583375]"
"[-2.3359375, 101.375, -10.0078125]","[-2.0380453284210125, 112.27493157219857, -8.337115035048976]","[-2.0848211893014024, 130.00379038891253, -7.472189313768213]","[-4.54635134999982, 159.01690345584564, -5.966514463123167]","[-4.957330168832138, 172.59450245126834, -4.162203868119307]","[-4.815851706003202, 187.88410865432945, -6.172714876687811]","[-2.084829016150486, 130.00378963691955, -7.472187617607403]","[-6.157821542536537, 154.50947118006533, -4.950126186610721]","[-23.98691915485474, 152.9825872260978, -0.3171862317498171]","[-29.16869835878206, 124.76895112163433, 3.6100716615194277]","[-22.86059871486699, 118.9170564881237, 11.884559313279457]","[-16.181210464248018, 112.71798445307729, 20.667384081734]","[-8.79481751000558, 104.14279077839709, 22.744553470904524]","[-10.354208820451117, 111.5471125443726, 19.492617954221476]","[-6.751463370911567, 111.41375673163557, 21.012416464124012]","[-3.77411361070123, 109.60014084240902, 23.477074564247687]","[-10.015118601991993, 106.03705106985505, 27.605467795622936]","[-7.285971196495631, 102.11472697202726, 28.985038453521426]","[-4.68408310658123, 98.12161657753236, 28.956156924211584]","[-5.975111890549751, 108.57773906945673, 25.278326506173848]","[-3.9432252103582406, 105.34447036480901, 27.569452835074742]","[-2.174586902042641, 102.98443083836635, 29.324681931293664]","[-20.615802838613533, 160.19979492808426, -1.2042676130262313]","[-9.872325951056125, 137.31302724798377, 11.118424132331445]","[-2.0848013334920417, 130.00363933668314, -7.472207865765764]","[-1.9977856591361614, 154.88245259004884, -5.34576762248123]","[16.324236499482925, 153.65224808795534, -7.3167649070166565]","[27.685625910835785, 131.35009366816388, 7.237141311989564]","[20.233861287835612, 124.40487882401774, 13.461217627450782]","[12.33725732322193, 117.04700888626708, 20.0707648088097]","[-8.776906496482866, 104.11741668472133, 22.74449824182256]","[6.071047217008666, 116.90016210606737, 19.75553034984721]","[3.0594354356273743, 114.52581448951572, 18.202817754498945]","[3.2276891162643273, 111.12676730160176, 14.976105369950266]","[6.68077766140337, 107.37187785521579, 21.68608603933479]","[4.05427387200022, 106.95319927969048, 17.774104955721146]","[1.593046444074496, 110.63883753264994, 18.073812576142885]","[2.5290488616333224, 110.48962181954397, 22.768233006200163]","[0.9235436459633959, 106.57845521028979, 21.011804894207195]","[0.10449153614545437, 105.17737542627596, 17.93500452796625]","[12.535605244730412, 160.5594165557694, -8.776919302223584]","[7.606792518727218, 138.87889718216147, 9.468385836434464]","[-2.3359298040269563, 101.37498557007991, -10.007818509540586]","[-11.469111524658231, 101.76585395790167, -8.890386968221792]","[-10.821806141322876, 52.77841878817763, -6.255789059118455]","[-3.185463440778433, 12.656137686442442, -11.067696921274305]","[-14.137278677217006, 2.0515480839288447, 2.888166959298916]","[-11.663447603416575, 97.55681779333547, -19.277918487481102]","[-2.3359329499422365, 101.37468066264063, -10.00779532939961]","[6.734864811738085, 101.19560212530119, -8.424214913070855]","[6.4985224616046, 53.11608967274556, 1.34479449630577]","[6.853452247304027, 12.358036793251344, -4.125194196742502]","[2.738520271389996, 2.2085748621727657, 13.402540157905367]","[7.195473406492427, 96.96686457760248, -18.796378679366107]","[-26.47642260997116, 139.42385126118, 1.5707191881850586]","[21.783676225874142, 142.93498762592878, -0.3213389911404203]","[-10.81680816118947, 83.55470833454174, -8.390872718700134]","[6.730268073550466, 83.21672943894775, -5.410752281602113]"
"[-2.423828125, 101.1875, -10.2578125]","[-2.1347150708825025, 112.08535178156646, -8.572072833096822]","[-2.336196738020675, 129.7967516008448, -7.419490663976857]","[-4.414120830459961, 158.8045287512279, -5.341507311919202]","[-4.858061261150854, 172.36964516815559, -3.453077203832234]","[-4.812438846481839, 187.65608169890837, -5.491950741414119]","[-2.3362045164008207, 129.7967509056661, -7.4194887364005515]","[-6.045017249618858, 154.2980618537961, -4.352085957377601]","[-23.618613328391994, 152.6967541079807, 1.150344676289393]","[-29.387819379703878, 124.59515665719776, 5.0618579955134795]","[-22.640758479823713, 119.41570764077916, 13.437681251320445]","[-15.49617662371909, 113.93003597753592, 22.32829977680845]","[-5.976070802043015, 107.59004065832171, 25.067729001108063]","[-9.478482621456207, 113.32254118592078, 22.67940319611128]","[-6.334023491425933, 113.89936210741763, 24.934841119563462]","[-3.8742533272654365, 112.91199737969944, 28.281928715182765]","[-10.584624502668543, 109.33057963001802, 31.57583888122396]","[-7.763177939877423, 106.43613623273885, 34.47372525964125]","[-4.553538786350044, 105.43471772675183, 37.85172074365326]","[-6.341211251045472, 111.93570978479703, 29.7293903745676]","[-4.365626711380227, 109.9107656694994, 33.168650795802165]","[-2.6445580877364945, 108.77069160146002, 35.91033841494806]","[-20.29698091493911, 159.92727276555823, 0.1908184177514407]","[-9.45571833441609, 136.86563954539142, 11.528446364749044]","[-2.3361792177551197, 129.79660068591645, -7.419512410941741]","[-1.8951665204427526, 154.6319575964236, -4.870539742936524]","[16.48958631114695, 154.24241371393862, -6.586304389645369]","[29.74947457153118, 133.1113822736072, 8.10853555323459]","[21.852055829585726, 126.17739535959718, 13.770208284618523]","[13.481572105358143, 118.83282239768587, 19.784606128648452]","[-5.952455637039122, 107.57549445977038, 25.062192053208737]","[7.866451123757524, 119.63969985988832, 22.468947939811823]","[3.9070973861565035, 118.44092846534312, 22.400231217716982]","[0.764420195235592, 116.39370133601072, 19.584931458174545]","[5.935372779950362, 110.3959250551811, 20.079265734998877]","[1.7467566091682745, 111.05739577728002, 17.98275035500743]","[-2.428309466478577, 111.34136094418541, 16.49288566048334]","[3.753444541088694, 113.07270609392927, 24.104468083067488]","[0.3387025503057841, 110.03910126371308, 23.793516275373733]","[-2.7297067973107856, 108.55012852562012, 23.10913124150579]","[12.480735794877049, 161.1348211116569, -7.373811922446892]","[7.980448185532396, 138.26732308841213, 9.358299401232088]","[-2.4238205128880956, 101.18748561754227, -10.25781872622155]","[-11.528601864101361, 101.53415994307231, -8.916471214641067]","[-11.34603516516954, 52.578718065214375, -5.6822333362341]","[-3.1812195699906827, 12.634751813147965, -11.074911177015604]","[-14.134186174662549, 2.0308415212721975, 2.8805652871797367]","[-11.957961413902854, 97.34487439776213, -19.30493115856867]","[-2.4238217044543076, 101.18718065351455, -10.257796114626938]","[6.683735014618679, 101.04665265307851, -8.896976295259867]","[6.270918590218736, 53.08196864819061, 1.4155205533172968]","[6.861530496707216, 12.336628698059023, -4.128311692153018]","[2.7479644446970353, 2.18864567313919, 13.400599544019185]","[6.9095828626679365, 96.84064549032286, -19.28613695510656]","[-26.390305347774866, 139.19183816634614, 3.03079782692813]","[22.861324084513853, 144.08790522570152, 0.47684312301052056]","[-11.055179812057563, 83.32476450443008, -8.199095163686176]","[6.629797457828734, 83.10354467685248, -5.67784471418583]"
"[-2.49609375, 101.0625, -10.5390625]","[-2.2815886236022633, 111.95443220446498, -8.804623603086926]","[-2.600173719966465, 129.63016934214627, -7.21416773052009]","[-4.230776989591222, 158.64384866472136, -4.840464936347791]","[-4.652793893191531, 172.1697568812727, -2.684695135215691]","[-4.607821828516724, 187.4541516101221, -4.73883334912055]","[-2.6001814538347614, 129.6301687336865, -7.214165604707444]","[-5.895808603514343, 154.15101183217718, -3.8458447611280566]","[-23.11053836959635, 152.41558707659348, 2.6590427147025486]","[-29.197134538498513, 124.53215783277834, 7.53256053978445]","[-22.20789591605812, 120.25725065978575, 16.214706040173205]","[-14.80695032498246, 115.73123653899194, 25.430016639291658]","[-0.5538289665939029, 117.46882145246998, 30.341203023191426]","[-8.931182392222443, 115.40560286673869, 26.870252227520304]","[-6.422765507133597, 115.58836388525268, 29.86721030742717]","[-4.589866928910762, 115.63385210139982, 33.7229540794223]","[-11.4963707859172, 112.80080292425181, 35.97743074718258]","[-9.050133174913828, 110.61226208335275, 39.71405418337049]","[-7.50695311358336, 110.1552113307327, 44.2001695511593]","[-7.026262489807031, 115.2420313429021, 34.47371306618527]","[-6.227404529000851, 113.87877089880267, 38.63726852635959]","[-5.600496333379252, 113.27546370815374, 41.95716366931222]","[-19.902240548803384, 159.67131732483247, 1.5198383638825272]","[-9.124396428353585, 136.62801824152095, 11.972955842635585]","[-2.60015881717907, 129.6300184024956, -7.21419118973084]","[-1.758616578716672, 154.43400971566885, -4.469310417173779]","[16.65993878037525, 154.4174956407529, -5.829925936879162]","[31.595224356770327, 133.43525899792985, 7.3975620194584835]","[23.19349788290715, 127.56578487776069, 13.51836294143284]","[14.289382760330351, 121.35062916261063, 20.01984856385065]","[-0.5251127414053691, 117.45616848180119, 30.339658714924774]","[10.785871853672045, 125.13712544952162, 23.588754406837584]","[9.30418061480546, 127.2006055813061, 26.854472628086647]","[5.042520087560616, 129.00822594942377, 27.605604742892957]","[3.1343406918483883, 119.68746664574174, 21.023046159608494]","[-0.9802850426965959, 122.01591651491341, 20.863035274186323]","[-3.889178233734443, 125.37022426422355, 20.998409269348418]","[3.5535889108572842, 122.52585381096783, 25.482283047874116]","[0.010820398138091658, 125.27300504750436, 24.553917753395517]","[-1.2978874326464198, 128.18351022944495, 23.16943230835586]","[12.588759223929326, 161.31817507340614, -5.876878457112881]","[8.26624870718031, 137.81662641417043, 9.356311065205574]","[-2.4960860880540996, 101.06248571397896, -10.53906888508893]","[-11.586888060505796, 101.32325735817595, -9.087946100671]","[-11.900030387482106, 52.419288667867974, -5.159498188590296]","[-3.185616627477904, 12.666982669701824, -11.082233087835554]","[-14.136639897407703, 2.0698165962952952, 2.8798897743231073]","[-12.10372435228915, 97.17911032696642, -19.490517352094933]","[-2.496084360816001, 101.0621806485674, -10.539047722065256]","[6.627933181184018, 100.99490558830593, -9.287270565234596]","[6.084710907154658, 53.11269642572903, 1.3957943348100095]","[6.853875433450704, 12.367502673834856, -4.1271757129518]","[2.741965332249472, 2.2231339144577458, 13.404215904867051]","[6.76636984487792, 96.839769252511, -19.698410754513993]","[-26.034695361434686, 139.0155310222298, 5.001891177982433]","[23.83703470076951, 144.3345399402306, 0.5280954660930899]","[-11.302173005550156, 83.12175407970565, -8.115806803855303]","[6.53705162285642, 83.0777444665672, -5.927520706483824]"
"[-2.556640625, 100.875, -10.8984375]","[-2.4716158222399005, 111.74726990149443, -9.034303391041362]","[-2.9214114154363306, 129.35873886721194, -6.867143488761429]","[-3.881217399854676, 158.38515924035465, -4.291757422576504]","[-4.334298571956082, 171.90632525114523, -2.112670012417087]","[-4.02538773613062, 187.1939731471759, -4.1193150777445044]","[-2.9214190854497732, 129.3587384026801, -6.867141110290178]","[-5.603496901705295, 153.92114304307873, -3.26530453089528]","[-22.531774085998805, 152.0411534174778, 3.916006798533526]","[-28.10593995457456, 124.65150633381597, 11.467123477377157]","[-21.157741989084293, 121.56333635378078, 20.669823585361634]","[-13.800389749598288, 118.29620693555084, 30.435886026708257]","[6.22514895952051, 121.83770653451698, 33.909459234161076]","[-7.781319667381924, 117.7321234616562, 30.83283667553399]","[-4.829309911623726, 117.47061487590035, 33.387153403959005]","[-2.208456088449392, 117.68200707653962, 36.75089853776018]","[-8.805896098310107, 115.43906552301362, 40.31956441758176]","[-5.851675841151813, 113.53945983909264, 43.840959829588286]","[-3.9813383004714193, 113.11061315063299, 48.2036951168809]","[-4.573861297142125, 117.64096823359561, 37.986296938282095]","[-3.223993982170163, 116.54023518229869, 42.08484420256937]","[-2.244426417432744, 116.29149305234994, 45.36467274003987]","[-19.53219716702262, 159.32146040506834, 2.415570866173354]","[-8.66271994130287, 136.37532532620892, 12.561854762638255]","[-2.921400375575921, 129.3585877962461, -6.867168204961603]","[-1.4841359534094278, 154.12409410883015, -4.023480680375201]","[16.959443475452574, 154.29571397884789, -4.9719809015710545]","[32.62379040118759, 132.26349072534174, 5.395893605462785]","[23.842909549999234, 128.5677044355616, 12.589031993586456]","[14.5402807936829, 124.6572512499592, 20.22776310714362]","[6.243373196564898, 121.82795244835918, 33.90109985740051]","[14.085223384556878, 126.68670919844732, 26.14582485992118]","[13.568550402877571, 126.58724706052257, 30.249661671618775]","[11.158413328741899, 127.30110474052785, 34.2088357721616]","[4.4497264965629935, 127.03569519455596, 24.780915520860997]","[1.6249052453402313, 129.64069455907696, 27.53986212785095]","[-0.5527692403974509, 131.52696873628378, 30.920854320537433]","[6.891699798215543, 126.39819005715322, 29.444321785420463]","[3.760882030175176, 127.71896821063987, 32.51245386741763]","[1.4529606844795917, 129.14845409605363, 34.687453869339194]","[12.848405483685422, 161.16053835663467, -4.559093584978524]","[8.652331232029823, 137.22776623946595, 9.37492758058888]","[-2.5566327978868224, 100.87498588458695, -10.898444061751812]","[-11.6484654162331, 101.00879904936939, -9.43655714235235]","[-12.505436635110183, 52.17833510694503, -4.748241204400069]","[-3.1856828000241695, 12.628947612033642, -11.092826717288201]","[-14.135669920829494, 2.0376300522989386, 2.874545571978265]","[-12.125712476418936, 96.98311443865005, -19.887426085569484]","[-2.556627374807858, 100.87468063142133, -10.898426544408025]","[6.568781836896141, 100.90249235500951, -9.655325053057002]","[5.905651662743667, 53.08362734764654, 1.3011948345070223]","[6.858157940884457, 12.330644042144186, -4.135045558247293]","[2.749582711122291, 2.190310710680553, 13.399462241292131]","[6.746883698705576, 96.87382301007749, -20.115452478463993]","[-25.209676656739184, 138.87849723221805, 7.545670042617633]","[24.487402116553923, 143.7083085864966, 0.01177506167483866]","[-11.565719348376716, 82.82260039349553, -8.181100804586691]","[6.444869080306544, 83.00544843551717, -6.191034962111125]"
"[-2.609375, 100.75, -11.28125]","[-2.673210156743577, 111.5902995485115, -9.238626990403224]","[-3.238649910581719, 129.1328613139184, -6.59258309180219]","[-3.450904126757912, 158.1580359248027, -3.839201821546792]","[-3.8667390305096356, 171.67781372131435, -1.6441336108280153]","[-3.1712437622069753, 186.96000220167636, -3.5948335103932365]","[-3.238657507856834, 129.1328610094694, -6.592580466779685]","[-5.240394076518854, 153.7282668867023, -2.779766503359576]","[-21.924510070598064, 151.64090574080328, 4.898472808900118]","[-26.35143593176857, 124.70402071259925, 14.546789119933155]","[-19.118675411232132, 122.51338820494033, 23.787581403935434]","[-11.459147451185256, 120.19801565492224, 33.593264078570485]","[11.896656395094194, 127.11534465506877, 35.59260878728285]","[-5.6959198839666145, 119.16489091300477, 32.0367211418529]","[-2.020540935594005, 118.68095686240366, 33.28759259207742]","[1.7133428600760272, 118.44214189258858, 35.34414755160763]","[-3.8158958427723837, 116.69740684386711, 41.34708669845741]","[-0.012531440596730281, 114.92950414647039, 44.02011136659908]","[3.3029993714059755, 114.4732027032872, 47.41342473451531]","[-0.3880868396802821, 118.6326230693605, 37.78230131445033]","[2.3799215418736495, 117.5846968918256, 41.10973577957189]","[4.54614695544748, 117.44372238554193, 43.76798767531045]","[-19.137137907667178, 158.94919514196704, 3.1419632281543666]","[-8.183706643221665, 136.16404099423636, 13.048954739862515]","[-3.2386431341478787, 129.13271017865247, -6.59260892621962]","[-1.146195442749593, 153.84216453745842, -3.670464427880682]","[17.317397982911327, 153.69635609450066, -4.08178582983513]","[32.266672867038984, 130.07085245654145, 3.4440500517003985]","[23.681617443054257, 129.08011551877368, 11.679291816876397]","[14.589375048450918, 128.0366280717655, 20.421317955306158]","[11.916715507264833, 127.1068917276368, 35.57787970581294]","[16.48156470124282, 130.3613754513236, 25.931708110193178]","[16.39573895539232, 131.02981014860194, 30.013886180834838]","[15.792589032084441, 131.74776915096177, 34.60890000908156]","[7.251476241554789, 129.5133411712711, 28.9173192526669]","[4.789444010350387, 132.13987225224494, 31.98605748758919]","[3.2705109229761424, 132.78669228054997, 36.10987095491197]","[11.536462518184525, 129.4502004029886, 32.03939109845905]","[8.688379740216789, 130.0879912735956, 35.56665045687382]","[6.5651654326931315, 130.4188728789521, 38.302164101285165]","[13.317662606276539, 160.6257349212286, -3.6579717044695523]","[9.033581460972036, 136.64238477618935, 9.303245851966052]","[-2.609366952869523, 100.74998609307833, -11.281256738426668]","[-11.711680533928753, 100.74656965770848, -9.879716340065]","[-13.112708033913734, 52.00886213214859, -4.420604529075058]","[-3.1867278186190955, 12.660773426491552, -11.089072125140815]","[-14.134747443421977, 2.0682028391047833, 2.8788922544699673]","[-12.068870182908068, 96.88797699647368, -20.39818777079418]","[-2.609357815074132, 100.74968068385355, -11.2812441897869]","[6.506517624863079, 100.87054226714478, -9.975343913328478]","[5.708240575097769, 53.11605482164148, 1.249655100073488]","[6.850916913466591, 12.36081018032008, -4.132719019717294]","[2.7415798283299697, 2.2176096978569557, 13.399951825228063]","[6.80470979795585, 97.0172716563282, -20.49862998505769]","[-24.05108638835945, 138.69592013399156, 9.53594583833874]","[24.501878301641717, 142.34318335250026, -0.4637961967121198]","[-11.829077584553863, 82.58284620287137, -8.33498100357474]","[6.344307070436486, 82.99405303479998, -6.4080393686971515]"
"[-2.65234375, 100.5625, -11.671875]","[-2.857600645648746, 111.36490160106872, -9.44601172593817]","[-3.477249569610474, 128.87615896189507, -6.611465962392426]","[-3.030560483328824, 157.88159923338029, -3.6836978029374614]","[-3.2267537501648187, 171.35368244010297, -1.1856751730462642]","[-2.2063220778409294, 186.61938647630788, -3.122483887612533]","[-3.477257115701, 128.87615879756652, -6.611463181828561]","[-4.8891768763158625, 153.48303762802124, -2.613152702551269]","[-21.33839159187954, 151.34687400625603, 5.543582236911392]","[-24.581385539004057, 124.00158114352462, 14.487932691476097]","[-16.171887281781885, 121.9900730322041, 22.71824929302376]","[-7.263817071322798, 119.86424660185355, 31.453687358150276]","[15.66127456510921, 132.1784035389634, 35.252147480816646]","[-2.0179792558462903, 118.4977778240265, 28.74833833617606]","[1.8147530406168482, 117.81363959585734, 29.134861184612326]","[5.908374503236232, 117.33040613125122, 30.24710568579453]","[1.6264457011997564, 115.96862038734962, 37.50204636292026]","[5.844844277307244, 114.16937550204018, 39.42661198772501]","[9.795717994302898, 113.58869901060557, 42.02833120199804]","[4.335134031499688, 117.6892264646408, 33.27067238570086]","[7.754933409917166, 116.59684694867185, 35.90572812569779]","[10.497017056871924, 116.08072546231732, 37.90405380061517]","[-18.52199868459342, 158.6742935387937, 3.916892900727362]","[-7.868475330496086, 135.88361935759204, 13.169679537763344]","[-3.4772464648493644, 128.87600788520032, -6.611492821255865]","[-0.812549161443648, 153.5180279944664, -3.5871453775692013]","[17.617212232881965, 152.3458699348804, -3.3328470068203506]","[30.160838625838124, 127.00841635069523, 2.9084934105372735]","[22.35999323274295, 129.02727937049005, 11.71615748722942]","[14.101400589305005, 131.1736183368183, 21.063330094310402]","[15.68948651749492, 132.1643633360048, 35.249885292362805]","[17.370636362532274, 133.45826489897289, 25.90499502128098]","[18.11364516739729, 134.829467410553, 29.73723727668655]","[18.209604168841405, 136.5847215795227, 34.085025167555685]","[8.878326457267901, 134.4077649969252, 30.57475851045372]","[7.44412621016747, 137.255505938941, 34.069162973267865]","[6.311009651964531, 137.5938815006005, 38.35085897407765]","[13.620628864773343, 133.78671958110382, 32.8632727064044]","[11.40479223804758, 134.92303895937846, 36.70498602204075]","[9.757017487026605, 135.15429296236113, 39.75980525467399]","[14.000268031761538, 159.49498659752396, -3.3104044516094278]","[9.273953496961365, 136.03055204612482, 9.069715856216167]","[-2.6523354770800673, 100.56248629812274, -11.671881883496791]","[-11.768944777871678, 100.4369305032412, -10.372608899364009]","[-13.675158668764286, 51.80508465577574, -4.1727030319019605]","[-3.18419502081605, 12.64691248215886, -11.089556497764516]","[-14.13349475207023, 2.0519036641920074, 2.875554952069235]","[-11.967939260657381, 96.75547833990184, -20.958537019968446]","[-2.6523231281450337, 100.56218083500134, -11.671874430476173]","[6.446745500384971, 100.75892050226079, -10.262118534071382]","[5.515368843524439, 53.08815264744037, 1.3033191968868039]","[6.859844367315605, 12.345397555089832, -4.126774655020989]","[2.752727953092583, 2.203214898235796, 13.407005313341365]","[6.903048297351306, 97.08993724244543, -20.84543145188695]","[-22.895843386006504, 138.20560346402726, 9.842708630006943]","[23.645879472840203, 140.16996076281467, -0.3322562574726673]","[-12.071773510853014, 82.30120156109126, -8.549296099419106]","[6.245960612856654, 82.9092543623433, -6.564829614364223]"
"[-2.673828125, 100.375, -12.09375]","[-3.0258369479343785, 111.13243935686974, -9.676713318019175]","[-3.575776767673755, 128.62971264846482, -6.743158124164228]","[-2.5127232157256643, 157.60587707543112, -3.6872236827765557]","[-2.431033265294399, 171.00484688104464, -0.8172812274845569]","[-1.211361099016663, 186.2544035597548, -2.76603709349734]","[-3.5757843140786023, 128.6297126317811, -6.7431553396504365]","[-4.461474235495302, 153.2428562294615, -2.6344973480451834]","[-20.7327084889998, 151.35204919525788, 5.929614317622207]","[-22.919030186629325, 123.27460037699888, 12.649757341920349]","[-13.422676914493637, 120.98888972024444, 19.512609402806874]","[-3.36115564460583, 118.5717741807119, 26.799863954718003]","[17.79010258154128, 136.45987208013264, 33.862674035879735]","[1.4698942764410958, 117.13662119855249, 23.437386115994336]","[5.329407551014011, 116.49722601476036, 23.386265777581215]","[9.530533023013, 116.1353312245247, 24.055531061504492]","[6.340269032869957, 114.98758959454194, 31.68159546082713]","[10.759002293098433, 113.12453220865783, 33.00066580939185]","[15.019022507326145, 112.63044680859288, 35.08000189985036]","[8.405243375062662, 116.55748721226333, 27.04759787007665]","[12.105866727924024, 115.50220531270067, 29.28893773292536]","[15.043412829791254, 114.70334166390825, 30.87366053077342]","[-17.71371882872925, 158.63763562070113, 4.487218212775447]","[-7.806980391662279, 135.64073275089515, 13.07157364778574]","[-3.575776880689764, 128.62956166071774, -6.74318565402524]","[-0.3876615979288247, 153.1958802574762, -3.6113561901543667]","[17.880520103137158, 150.66804228362278, -2.622265948161747]","[27.123056141110396, 124.0922743782808, 4.20324027682048]","[20.40203158885147, 128.90927033806545, 12.813020951344699]","[13.289873120425618, 134.02106211116302, 21.949078499146374]","[17.806162457815812, 136.4524192950796, 33.85490417793878]","[17.099518433404523, 136.14488031182083, 26.45742970106301]","[19.0104842008137, 137.6111254309866, 29.821447770618967]","[19.275056996099995, 140.92728557273693, 33.126966500059225]","[9.429329603805733, 140.98013428866685, 29.99277836597845]","[9.241563843779554, 144.16665285194892, 33.48394794561652]","[7.773832563793254, 146.05214985218345, 37.22855109045563]","[13.626837769045391, 139.35855203127008, 32.79784531344576]","[12.451195966457295, 141.94222962026348, 36.38983606312639]","[11.07565739032698, 143.1895220041723, 39.331385752342776]","[14.825813856936614, 158.05305824583155, -3.1892667971067863]","[9.33253715867743, 135.44246654170445, 8.961611827853615]","[-2.673819613356652, 100.37498651391562, -12.093757017309196]","[-11.804931463008835, 100.12907553405522, -10.91954925573915]","[-14.290715248546856, 51.61686208582274, -4.026441089362925]","[-3.186004880469703, 12.655198349749554, -11.0932504621304]","[-14.133949310655018, 2.0595993263064543, 2.8724757399652834]","[-11.823756606245324, 96.63843214998863, -21.571761110044022]","[-2.673804047708988, 100.37468111419489, -12.093754899896322]","[6.4031282570475305, 100.64241191920156, -10.558571444494879]","[5.3518873593578045, 53.07635921536187, 1.4203451642566698]","[6.853910643354524, 12.355291800454282, -4.129809866765815]","[2.7444864735860772, 2.2115191608099494, 13.40250954317085]","[7.039334274588896, 97.1711454747924, -21.19914069124524]","[-21.782246531047363, 137.85887209914426, 9.159750080450452]","[22.322979617142355, 137.89701390215714, 0.6589724266754171]","[-12.316709215365236, 82.02661534804882, -8.831521997168112]","[6.165404127230391, 82.8263876095162, -6.704533785414549]"
"[-2.650390625, 100.125, -12.5625]","[-3.160711266749946, 110.82545077582688, -9.930313834914381]","[-3.5037696428941114, 128.28954524249468, -6.775877105492744]","[-1.7954675667000615, 157.23226114385176, -3.6956463919408145]","[-1.5461859242809366, 170.590935847046, -0.6527359817067611]","[-0.21697834773724445, 185.83198886785922, -2.596376522270741]","[-3.50377725484368, 128.28954541580174, -6.775874511227925]","[-3.8783296292043032, 152.91993122287406, -2.6922290316903297]","[-20.12485710588857, 151.7410718364106, 6.044640441395352]","[-21.66061870113171, 123.21377447423373, 10.747639343493866]","[-11.778510732922456, 120.5303494671274, 16.883363343483683]","[-1.2943030773678288, 117.68775269764929, 23.408508957750193]","[20.401888940379383, 139.43587586495318, 34.84646666840535]","[3.153808801206474, 116.49267187301214, 19.47264219475794]","[7.036298525884786, 116.38263976621607, 19.00202453161436]","[11.286143282467274, 116.51822192737765, 19.387744342659673]","[9.311921106439756, 115.42335102177809, 27.038359647701476]","[13.931831167973492, 113.69562285109379, 27.67673204811577]","[18.488071967632017, 113.68597937086875, 29.075341344554758]","[10.541403005341511, 116.85111356185934, 22.0732312883802]","[14.509388600240577, 116.06734384158965, 23.936732753597727]","[17.651678051759983, 115.62210465570988, 25.24305683491732]","[-16.84281295546235, 158.89130923130054, 4.498687511556052]","[-8.054584652323907, 135.41743585547414, 12.926009614768532]","[-3.5037728296435566, 128.28939428560577, -6.775904620363341]","[0.21606908983096895, 152.7708831051253, -3.567496635990991]","[18.22106911031851, 149.03786157159837, -1.8414458235215805]","[24.054747331460604, 122.16555272476992, 7.221151102219064]","[18.478081052470188, 129.1993795431054, 15.09071371294166]","[12.579747746914581, 136.6604225523559, 23.440759172338552]","[20.408219809083434, 139.43193139485507, 34.830577584844676]","[17.19244440277722, 139.321537927677, 26.75598559600766]","[19.954319051579144, 140.94442711457424, 29.374487467164098]","[20.752093937752914, 144.74211862377817, 32.00783468430035]","[10.403182407811858, 145.1040852262929, 30.65191118408243]","[11.14932107617411, 148.74035277733057, 33.58418954078908]","[10.473693251213435, 151.5936223480342, 36.92092095770765]","[15.003833620978945, 143.76633546052662, 32.92379110465651]","[14.725491360080275, 146.96276869054566, 36.189562369137334]","[14.042256593284195, 148.76258097928599, 39.08687582105036]","[15.718585992344599, 156.57352658729928, -2.9101952463386525]","[9.172365919246669, 134.7892525186124, 9.247461367244405]","[-2.650381855981893, 100.12498675685183, -12.562507161600438]","[-11.794859723323498, 99.75432056948833, -11.534124548245526]","[-15.010918929979614, 51.37638964295468, -4.026683086426644]","[-3.1845924612167718, 12.627078867841725, -11.09029015343275]","[-14.135012325478534, 2.031672059340263, 2.8736410130639616]","[-11.612868279275068, 96.48540408103673, -22.254928021659325]","[-2.6503628687333127, 100.12468156867477, -12.562511088841324]","[6.398669760214576, 100.46036131566487, -10.882780253702116]","[5.250927944277819, 53.02537970813026, 1.5965678447956968]","[6.854953021989381, 12.332496516527819, -4.1289877933703805]","[2.742242875006994, 2.184705166215412, 13.400235241931245]","[7.235179690815649, 97.21778188502833, -21.58147608505208]","[-20.861699073850982, 138.0316784194993, 8.305333111271933]","[21.025459393455524, 136.1243120613991, 2.5147878584548393]","[-12.56510373313738, 81.69055910155981, -9.204299472962827]","[6.128717622587262, 82.68661049598526, -6.840287352306304]"
"[-2.52734375, 99.875, -13.0234375]","[-3.119204013229379, 110.5036134578642, -10.130211727195466]","[-3.2987540444588306, 127.92289019939761, -6.724434503563053]","[-0.88577669970815, 156.82273480699277, -3.7138794985915586]","[-0.7086073039840838, 170.18329728376295, -0.6742057567946218]","[0.9533895330041074, 185.40550826121174, -2.50622322057149]","[-3.2987617596257577, 127.92289061051987, -6.724432265438996]","[-3.138490499627418, 152.57932543594157, -2.786553431362685]","[-19.61218978772273, 152.63749972953798, 5.597129797841999]","[-21.59587306194752, 124.0107308511933, 9.451550821165993]","[-11.44606060319302, 121.08097867849833, 15.010489189173327]","[-0.676861766983837, 117.97717793750006, 20.9238023696374]","[21.566418072408656, 142.96637829661364, 36.091871222034285]","[3.5306618810945887, 116.74179299457288, 16.743427574071102]","[7.351578700307785, 117.04052890702062, 15.956874418544542]","[11.586523919418461, 117.5381927917672, 16.171154749161566]","[10.320363873659623, 116.78687885150484, 23.828890787029522]","[14.952683888084525, 115.00047623737673, 24.123035825014924]","[19.62938133325407, 115.21786076361163, 25.015659015038374]","[11.048908414997925, 117.84237704786037, 18.675466911206858]","[15.15385443279057, 117.28292064634893, 20.308951428354757]","[18.38012671830326, 117.29984844745455, 21.479241051272584]","[-15.986836743546, 159.53186610687638, 3.6962423377216456]","[-8.542587016540573, 135.3057415579742, 12.709474103732905]","[-3.2987603861583294, 127.92273922638566, -6.724461376194027]","[0.9857917679153609, 152.3057047230372, -3.4705395964875576]","[18.770908282780734, 147.94300168190856, -1.072377911238016]","[20.722183023328185, 121.6393408829525, 10.868870049302894]","[16.31069882646618, 130.12302937571957, 18.015182093304087]","[11.647642395522924, 139.1198841738363, 25.597613056919176]","[21.563396185367807, 142.95943312807273, 36.080570176860896]","[16.659886887421617, 142.5304599575607, 27.208392277319877]","[19.78147742352814, 144.70628127856838, 28.833124926229786]","[20.953628977331494, 148.60545476848412, 31.1603738306871]","[10.636729497950697, 147.95533687617316, 32.59378486880234]","[11.49485061629845, 151.98992168792844, 34.90963786894039]","[11.523175056735484, 154.81326134563392, 38.338826998104565]","[15.827096619190847, 147.30437147000404, 33.461735086989734]","[15.942704773576855, 150.76229668796358, 36.459952727403696]","[15.802763708914805, 152.74979759790577, 39.31141116197651]","[16.583944330560108, 155.55249327256817, -2.2974353261117826]","[8.809876721550273, 134.1534526807813, 9.835732627686502]","[-2.527334795174115, 99.87498695875469, -13.023444800834689]","[-11.691624657916433, 99.46359368074927, -12.20920492791268]","[-15.616525161308235, 51.214930289403895, -4.222306172539103]","[-3.1879919446680134, 12.618768850422079, -11.087691246415357]","[-14.138334884081974, 2.021692133186688, 2.87503301578257]","[-11.26391343183767, 96.47096185072316, -23.003452509228374]","[-2.52731506767053, 99.87468200208968, -13.023456115440958]","[6.481326759865118, 100.18150413748526, -11.134170353247528]","[5.123923195231285, 52.94156368875306, 2.0443880734052655]","[6.860594872700984, 12.319846858040464, -4.130214706219081]","[2.749968022456616, 2.1764579108346407, 13.402044755346864]","[7.562843647828199, 97.21567004248266, -21.891043135878046]","[-20.564269303607894, 138.8802598879192, 7.449974051852677]","[19.7095981237522, 135.30269881858024, 4.667198957118637]","[-12.711354199118377, 81.4382156218999, -9.685965622526066]","[6.138410103869265, 82.47101134549753, -6.828163564428304]"
"[-2.24609375, 99.625, -13.359375]","[-2.770043115342268, 110.1710918887754, -10.166586114169743]","[-2.979084462282237, 127.56192258512438, -6.620028312449577]","[0.1532921798610074, 156.40712716516867, -3.7513509381323966]","[-0.032828551984384, 169.7900241912517, -0.8121229151311562]","[2.397978996028606, 184.94115471303695, -2.351163880165823]","[-2.9790922876211536, 127.5619232625394, -6.620026578321194]","[-2.2876661467599413, 152.2472696284828, -2.928697273680761]","[-19.267996695618248, 153.92426932031682, 4.179642105162044]","[-23.195478126278545, 125.6574925748285, 9.063050869488706]","[-12.499877387552464, 122.80957162700675, 13.534896977016835]","[-1.1499116899951929, 119.79350079829243, 18.294949639135965]","[19.14777737883339, 148.53460629918357, 35.0839041584794]","[3.079436077881981, 117.77667331405402, 14.4543781979401]","[6.907484986665063, 117.76802188786796, 13.646120209451812]","[11.165540003397435, 118.00138300017557, 13.85313826876457]","[9.647762128461702, 118.24389716896981, 21.730686986549703]","[13.997441168587315, 115.92660900264215, 22.398968835541393]","[18.648714941021378, 115.58092952234807, 23.37962635783956]","[10.59744651151815, 118.60615753380365, 16.518250105802675]","[14.653991298552278, 117.94381558584244, 18.232191449906658]","[17.86339771568616, 117.93309026656607, 19.44804197775576]","[-15.127561247882529, 160.418184552806, 1.9516415526628976]","[-9.215591388100584, 135.33772022647457, 12.362174788972865]","[-2.979093866947549, 127.56177156888931, -6.62005401954591]","[1.8611772083224851, 151.83739786330534, -3.3428380589955604]","[19.590973795605592, 147.65916679022757, -0.29465421242119394]","[16.817865109085762, 122.67953080005165, 14.079318843823469]","[13.469006872701442, 131.81862076392193, 20.990622586057846]","[9.931933522746618, 141.50840382612148, 28.323968269583794]","[19.153362164542063, 148.52549618938073, 35.06992797742989]","[14.593961411966571, 145.68570768519714, 28.72999800871337]","[17.423776289634795, 148.60336978726062, 29.50307612133752]","[18.148005259026302, 152.87801655930446, 31.290960021646207]","[8.75874296622396, 150.9158236691249, 34.501157369704465]","[8.842972650091228, 155.07671172752714, 36.75001018552477]","[9.441851709148535, 157.62294413150875, 40.340195348368226]","[14.059978150674354, 151.02647307390373, 34.541981662699506]","[14.021098298303642, 154.8447648105411, 37.06766063651169]","[13.80292496220855, 157.15662945470143, 39.65768768917431]","[17.318421425608268, 155.28322808428032, -1.2404517535129442]","[8.239555676044617, 133.61266363994702, 10.619711517695528]","[-2.2460847553727152, 99.62498703402976, -13.359382385490422]","[-11.438289374452767, 99.34297529383501, -12.8691953726459]","[-15.900889862112491, 51.18999633073195, -4.592437031155821]","[-3.1891559753411087, 12.620903959400458, -11.081085826096764]","[-14.140422189801281, 2.0234509670600556, 2.880628704686135]","[-10.686645361462546, 96.66658441560216, -23.72859342937017]","[-2.2460694442012294, 99.6246822624675, -13.359402275817482]","[6.6959702630306595, 99.72422846082432, -11.157315874356067]","[4.899655110590823, 52.776926112537325, 2.979620649756521]","[6.857255175974425, 12.31781483112303, -4.1262742721176995]","[2.7472942296369576, 2.179284642091549, 13.408951443270004]","[8.100087929028307, 97.06256166487898, -21.956396676309623]","[-21.15403172424451, 140.33992634365038, 6.526902861048317]","[18.259288828465223, 135.65508381579278, 6.6140174998380346]","[-12.646264587648279, 81.34658722360949, -10.225022271497027]","[6.19901409026986, 82.10943964622435, -6.489008811656262]"
